!!!!SEGMENT: pl-cz--iii-689--005_volckmer-augustin--stabat-mater-pragne-stacc-pod-krzylzem.krn
!!!cenid: 17xx:1224
!!!COM: Volckmer, Augustin
!!!COM-rismID: pe30020656
!!!CDT: 1755-~1820
!!!CNT:
!!!OPR: Stabat Mater
!!!OTL: Pragnę stać pod krzyżem
!!!OMV: 005
!!!PDT:
!!!AGN: Sacred
!!!SMS-siglum: PL-CZ
!!!SMS-shelfmark: III-689
!!!SMS-shelfwork: 001-005 M
!!!SMS-variant:
!!!SMS-altvar:
!!!NIFC-rismSourceID: 300001407
!!!NIFC-islandoraID: pl-cz:40317
!!!URL-pdf-islandora: https://repozytorium.nifc.pl/islandora/object/pl-cz%3A40317/datastream/PDF/view
!!!URL-scan:
!!!ONB-nifc: UWAGA: części Stabat Mater: Stała Matka Boleściwa, O jak smutna i strapiona, Widziała Kochanka swego, Święta matko, Pragnę stać pod krzyżem, Niech gorzką śmierć, Daj niech rany, Ze wszech Panien, Kiedy ciało
!!!AIN: 1 alto 8 empty 1 fagot 2 flt 1 tenor 1 violn 1 vox
!!!key:
**kern	**dynam	**kern	**dynam	**kern	**dynam	**kern	**dynam	**kern	**kern	**kern	**text	**kern	**text	**kern	**dynam	**kern	**dynam	**kern	**dynam	**kern	**kern	**kern	**dynam	**kern	**dynam
*part15	*part15	*part14	*part14	*part13	*part13	*part12	*part12	*part11	*part10	*part9	*part9	*part8	*part8	*part7	*part7	*part6	*part6	*part5	*part5	*part4	*part3	*part2	*part2	*part1	*part1
*staff15	*	*staff14	*	*staff13	*	*staff12	*	*staff11	*staff10	*staff9	*staff9	*staff8	*staff8	*staff7	*	*staff6	*	*staff5	*	*staff4	*staff3	*staff2	*	*staff1	*
*Iempty	*	*Iempty	*	*Ivioln	*	*Iempty	*	*Iempty	*Itenor	*Ialto	*	*Ivox	*	*Iempty	*	*Iempty	*	*Ifagot	*	*Iempty	*Iempty	*Iflt	*	*Iflt	*
*I"Fundamento !	*	*I"Alto Viola Oblg per expreſsivo.	*	*I"Violino Secundo.	*	*I"Violino Primo .	*	*I"Baſso.	*I"Tenore.	*I"Alto.	*	*I"Canto.	*	*I"Cors de Caſse Secondo in Dis.	*	*I"Cors de Caſse Primo in Dis.	*	*I"Fagotto	*	*I"Haubois Secunda.	*I"Haubois Primo	*I"Flauto Secondo.	*	*I"Flauto Primo.	*
*I'fund	*	*I'a-vla	*	*I'vl 2	*	*I'vl 1	*	*I'B	*I'T	*I'A	*	*I'S	*	*I'cor 2	*	*I'cor 1	*	*I'fg	*	*I'ob 2	*I'ob 1	*I'fl 2	*	*I'fl 1	*
*clefF4	*	*clefC3	*	*clefG2	*	*clefG2	*	*clefF4	*clefC4	*clefC3	*	*clefC1	*	*clefG2	*	*clefG2	*	*clefF4	*	*clefG2	*clefG2	*clefG2	*	*clefG2	*
*	*	*	*	*	*	*	*	*	*	*	*	*	*	*ITrd2c3	*	*ITrd2c3	*	*	*	*	*	*	*	*	*
*k[f#c#g#]	*	*k[f#c#g#]	*	*k[f#c#g#]	*	*k[f#c#g#]	*	*k[f#c#g#]	*k[f#c#g#]	*k[f#c#g#]	*	*k[f#c#g#]	*	*k[f#c#g#]	*	*k[f#c#g#]	*	*k[f#c#g#]	*	*k[f#c#g#]	*k[f#c#g#]	*k[f#c#g#]	*	*k[f#c#g#]	*
*A:	*	*A:	*	*A:	*	*A:	*	*A:	*A:	*A:	*	*A:	*	*	*	*	*	*A:	*	*A:	*A:	*A:	*	*A:	*
*M2/4	*	*M2/4	*	*M2/4	*	*M2/4	*	*M2/4	*M2/4	*M2/4	*	*M2/4	*	*M2/4	*	*M2/4	*	*M2/4	*	*M2/4	*M2/4	*M2/4	*	*M2/4	*
=1	=1	=1	=1	=1	=1	=1	=1	=1	=1	=1	=1	=1	=1	=1	=1	=1	=1	=1	=1	=1	=1	=1	=1	=1	=1
!	!	!	!	!	!	!	!	!	!	!	!	!	!	!	!	!	!	!	!	!	!	!	!	!LO:TX:t=P:problem:4, 8, 16, 32 left middle or right:global	!
!	!	!	!	!	!	!	!	!	!	!	!	!	!	!	!	!	!	!	!	!	!	!	!	!LO:TX:t=P:problem:pp=pp::global	!
!	!	!LO:TX:t=P:problem:4,8, 16 left, middle or right:global	!	!	!	!	!	!	!	!	!	!LO:TX:t=P:problem:4, 8, 16, 32 left middle or right:global	!	!	!	!	!	!	!	!	!	!	!	!LO:TX:t=P:problem:kolejność znaków [cc# ff# gg#]	!
!LO:TX:t=P:problem:kolejność znaków [F# G# C#]	!	!LO:TX:t=P:problem:kolejność znaków [c# f# g#]	!	!	!	!	!	!	!	!LO:TX:t=P:problem:4, 8, 16, 32 left middle or right:global	!	!LO:TX:t=P:problem:kolejność znaków [cc# f# g#]	!	!	!	!	!	!LO:TX:t=P:problem:4, 8 left middle or right:global	!	!	!	!	!	!LO:TX:a:t=1.	!
!LO:TX:b:i:t=Pragnę Stać pod krzyzem ztobą	!	!LO:TX:a:t=Aria IIItia	!	!LO:N:vis=4.	!	!	!	!	!	!LO:TX:a:t=30.	!	!LO:TX:b:t=29	!	!LO:TX:t=P:problem:4, 8, 16 left, middle or right:global	!	!LO:TX:t=P:problem:4, 8, 16 left, middle or right:global	!	!LO:TX:t=P:problem:kolejność znaków [C# F# G#]	!	!	!	!LO:TX:t=P:problem:4, 8, 16, 32 left middle or right:global	!	!LO:TX:a:t=Aria III	!
!LO:TX:a:t=Nº 5.	!	!LO:TX:a:i:t=Adagioſiſsime	!	!LO:TX:t=P:problem:kolejność znaków [cc# ff# gg#]	!	!	!	!	!	!LO:TX:a:i:t=Adagiosſime	!	!LO:TX:a:i:t=Adagiosſimo	!	!LO:TX:t=P:problem:partia in A	!	!LO:TX:a:t=Nº 5.	!	!LO:TX:a:t=Nº 5.	!	!	!	!LO:TX:a:i:t=adagiosiſsime	!	!LO:TX:b:i:t=ADagioSiſsimo	!
!LO:TX:a:t=Adagio	!	!LO:TX:b:i:t=Pragnę Stać pod Krzyzem ztobą.	!	!LO:TX:a:i:t=Aria Adagio	!	!LO:TX:a:i:t=Adagio	!	!LO:TX:a:t=Aria IIItia Canto et Alto Solo Tacet.	!LO:TX:a:t=Aria IIItia Canto et Alto Solo Tacet.	!LO:TX:a:t=Nº 5.	!	!LO:TX:a:t=Nº 5.	!	!LO:TX:a:i:t=In A#	!	!LO:TX:a:i:t=Adagiosſimo in A#	!	!LO:TX:a:i:t=Adagisſimo.	!	!LO:TX:a:t=Canto Alto Tacet	!LO:TX:a:t=Aria III Tacet	!LO:TX:a:t=Duetto	!	!LO:TX:a:t=Duetto	!
!LO:TX:a:t=Duetto Aria III	!	!LO:TX:a:t=Nº 5.	!	!LO:TX:a:t=Nº 5.	!	!LO:TX:a:t=Nº 5.	!LO:DY:a	!LO:TX:a:t=Nº 5.	!LO:TX:a:t=Nº 5.	!LO:TX:b:t=Aria III.	!	!LO:TX:a:t=Aria IIItia	!	!LO:TX:a:i:t=Adagiosiſido	!	!LO:TX:t=P:problem:partia in A	!	!LO:TX:a:t=Aria III	!	!LO:TX:a:t=Nº 5.	!LO:TX:a:t=Nº 5.	!LO:TX:a:t=Aria iii	!	!LO:TX:a:t=Nº 5.	!
4AA/	.	4e\	.	4c#/	p	8a/	p	2ryy	2ryy	2r	.	2r	.	4A/	f	4e/	f	4AA/	.	2ryy	2ryy	2r	.	2r	.
.	.	.	.	.	.	8r	.	.	.	.	.	.	.	.	.	.	.	.	.	.	.	.	.	.	.
8r	.	8r	.	(32e/KLL	.	(32cc#\KLL	.	.	.	.	.	.	.	8r	.	8r	.	8r	.	.	.	.	.	.	.
.	.	.	.	16.c#/JJ)	.	16.a\JJ)	.	.	.	.	.	.	.	.	.	.	.	.	.	.	.	.	.	.	.
8D/	.	8f#\	.	(32f#/KLL	.	(32dd\KLL	.	.	.	.	.	.	.	8e\	.	8b\	.	8D\	.	.	.	.	.	.	.
.	.	.	.	16.d/JJ)	.	16.b\JJ)	.	.	.	.	.	.	.	.	.	.	.	.	.	.	.	.	.	.	.
=2	=2	=2	=2	=2	=2	=2	=2	=2	=2	=2	=2	=2	=2	=2	=2	=2	=2	=2	=2	=2	=2	=2	=2	=2	=2
4E\	.	4e\	.	8.B/L	.	8.g#/L	.	2ryy	2ryy	2r	.	2r	.	4e/	.	4b\	.	4E\	.	2ryy	2ryy	4r	.	4r	.
.	.	.	.	(32c#/LL	.	(32a/LL	.	.	.	.	.	.	.	.	.	.	.	.	.	.	.	.	.	.	.
.	.	.	.	32d/JJJ)	.	32b/JJJ)	.	.	.	.	.	.	.	.	.	.	.	.	.	.	.	.	.	.	.
!	!	!LO:TX:t=P:problem:mixed beam	!	!	!	!	!LO:DY:a	!	!	!	!	!	!	!	!	!	!	!	!	!	!	!	!	!	!
8AA/	.	8e\L	.	8c#/L	.	8a/L	f	.	.	.	.	.	.	8a\	.	8cc#\	.	8AA/	.	.	.	8r	.	8r	.
!	!	!LO:TX:a:i:t=Dolce	!	!	!	!	!	!	!	!	!	!	!	!	!	!	!	!	!	!	!	!	!	!	!
8r	.	8B\J	.	8g#/J	f	8b/J	.	.	.	.	.	.	.	8r	.	8r	.	8r	.	.	.	8gg#\	p	8bb\	p
=3	=3	=3	=3	=3	=3	=3	=3	=3	=3	=3	=3	=3	=3	=3	=3	=3	=3	=3	=3	=3	=3	=3	=3	=3	=3
!	!	!LO:TX:a:t=Canto et Alto Solo	!	!	!	!LO:TX:a:t=sic&colon;s=8cc#	!	!	!	!	!	!	!	!LO:TX:a:t=1	!	!LO:TX:a:t=1	!	!	!	!	!	!	!	!	!
4r	.	8c#\L	.	8a/L	.	8dd\L	.	2ryy	2ryy	2r	.	2r	.	2r	.	2r	.	4r	.	2ryy	2ryy	(8aa\L	.	8ccc#\L	.
.	.	8d\J	.	8b/J	.	8dd\J	.	.	.	.	.	.	.	.	.	.	.	.	.	.	.	8bb\J	.	8ddd\J	.
8r	.	8e\L	.	8cc#\L	.	8ee\L	.	.	.	.	.	.	.	.	.	.	.	8r	.	.	.	8ccc#\L	.	8eee\L	.
8D\	.	16f#\L	.	(16dd\L	.	(16ff#\L	.	.	.	.	.	.	.	.	.	.	.	8D\	.	.	.	16ddd\L	.	16fff#\L	.
.	.	16d\JJ	.	16b\JJ)	.	16dd\JJ)	.	.	.	.	.	.	.	.	.	.	.	.	.	.	.	16bb\JJ)	.	16ddd\JJ	.
=4	=4	=4	=4	=4	=4	=4	=4	=4	=4	=4	=4	=4	=4	=4	=4	=4	=4	=4	=4	=4	=4	=4	=4	=4	=4
.	.	16qqd/	.	.	.	16qqdd/	.	.	.	.	.	.	.	.	.	.	.	.	.	.	.	16qqbb/	.	16qqddd/	.
4E\	.	4c#\	.	(4a/	.	4cc#\	.	2ryy	2ryy	2r	.	2r	.	4a\	.	4cc#\	.	4E\	.	2ryy	2ryy	4aa\	.	4ccc#\	.
!	!	!	!	!	!	!	!	!	!	!	!	!	!	!LO:TX:a:t=Nº 5.	!	!	!	!	!	!	!	!	!	!	!
8EE/	.	8B\L	.	8g#/)	.	8b\	.	.	.	.	.	.	.	8e/	.	8b\	.	8EE/	.	.	.	8gg#\	.	8bb\	.
!	!	!	!	!	!	!	!LO:DY:a	!	!	!	!	!	!	!	!	!	!	!	!	!	!	!	!	!	!
8r	.	8e\J	.	8r	.	8r	p	.	.	.	.	.	.	8r	.	8r	.	8r	.	.	.	8r	.	8r	.
=5	=5	=5	=5	=5	=5	=5	=5	=5	=5	=5	=5	=5	=5	=5	=5	=5	=5	=5	=5	=5	=5	=5	=5	=5	=5
!	!	!	!	!	!	!	!	!	!	!	!	!	!	!	!	!	!	!	!	!	!	!LO:TX:a:t=3	!	!LO:TX:a:t=3	!
8r	.	4e\	.	4b\	.	4dd\	.	2ryy	2ryy	2r	.	2r	.	4e/	p	4b\	p	8r	.	2ryy	2ryy	2r	.	2r	.
8E\L	.	.	.	.	.	.	.	.	.	.	.	.	.	.	.	.	.	8E\L	.	.	.	.	.	.	.
!	!	!	!	!	!LO:DY:a	!	!	!	!	!	!	!	!	!	!	!	!	!	!	!	!	!	!	!	!
8G#\	.	8e\L	.	16a/LL	p	(16cc#\LL	.	.	.	.	.	.	.	4r	.	4r	.	8G#\	.	.	.	.	.	.	.
.	.	.	.	(16g#/J	.	16b\J	.	.	.	.	.	.	.	.	.	.	.	.	.	.	.	.	.	.	.
8E\J	.	8e\J	.	8g#/J)	.	8b'\J)	.	.	.	.	.	.	.	.	.	.	.	8E\J	.	.	.	.	.	.	.
=6	=6	=6	=6	=6	=6	=6	=6	=6	=6	=6	=6	=6	=6	=6	=6	=6	=6	=6	=6	=6	=6	=6	=6	=6	=6
!LO:TX:t=P:problem:mixed beam	!	!	!	!	!	!	!	!	!	!	!	!	!	!	!	!	!	!LO:TX:t=P:problem:mixed beam	!	!	!	!	!	!	!
8A\L	.	4e\	.	8.cc#\L	.	(8.ee\L	.	2ryy	2ryy	2r	.	2r	.	4a\	.	4cc#\	.	8A\L	.	2ryy	2ryy	2r	.	2r	.
8AA\	.	.	.	.	.	.	.	.	.	.	.	.	.	.	.	.	.	8AA\	.	.	.	.	.	.	.
.	.	.	.	32a\LL	.	32cc#\LL	.	.	.	.	.	.	.	.	.	.	.	.	.	.	.	.	.	.	.
.	.	.	.	32b\JJJ	.	32dd\JJJ)	.	.	.	.	.	.	.	.	.	.	.	.	.	.	.	.	.	.	.
!	!	!	!	!	!	!LO:TX:t=P:problem:mixed beam	!	!	!	!	!	!	!	!	!	!	!	!	!	!	!	!	!	!	!
8A\J	.	8e\	.	8cc#\	.	8ee/L	.	.	.	.	.	.	.	8a\	.	8cc#\	.	8A\J	.	.	.	.	.	.	.
8r	.	8r	.	8r	.	8e/J	.	.	.	.	.	.	.	8r	.	8r	.	8r	.	.	.	.	.	.	.
=7	=7	=7	=7	=7	=7	=7	=7	=7	=7	=7	=7	=7	=7	=7	=7	=7	=7	=7	=7	=7	=7	=7	=7	=7	=7
4r	.	4A/	.	8c#/	.	8a/	.	2ryy	2ryy	2r	.	2r	.	8r	.	8r	.	4r	.	2ryy	2ryy	2r	.	2r	.
.	.	.	.	4e/	.	(4cc#/	.	.	.	.	.	.	.	4a\	.	4cc#\	.	.	.	.	.	.	.	.	.
4AA/	.	4e\	.	.	.	.	.	.	.	.	.	.	.	.	.	.	.	4AA/	.	.	.	.	.	.	.
.	.	.	.	8d/	.	8b/)	.	.	.	.	.	.	.	8e/	.	8b\	.	.	.	.	.	.	.	.	.
=8	=8	=8	=8	=8	=8	=8	=8	=8	=8	=8	=8	=8	=8	=8	=8	=8	=8	=8	=8	=8	=8	=8	=8	=8	=8
!	!	!	!	!	!LO:DY:a	!	!	!	!	!	!	!	!	!	!	!	!	!	!	!	!	!	!	!	!
4E\	.	4e\	.	4d/	f	4b\	.	2ryy	2ryy	2r	.	2r	.	4e/	.	4b\	.	4E\	.	2ryy	2ryy	4r	.	4r	.
8A\	.	8e\L	.	8c#/L	.	(8a\L	.	.	.	.	.	.	.	8c#/	.	8a\	.	8A\	.	.	.	8r	.	8r	.
8r	.	8e\J	.	(16g#/L	.	16b\L	.	.	.	.	.	.	.	8r	.	8r	.	8r	.	.	.	16gg#\LL	f	16bb\LL	f
.	.	.	.	16a/JJ)	.	16cc#\JJ)	.	.	.	.	.	.	.	.	.	.	.	.	.	.	.	16aa\JJ	.	16ccc#\JJ	.
=9	=9	=9	=9	=9	=9	=9	=9	=9	=9	=9	=9	=9	=9	=9	=9	=9	=9	=9	=9	=9	=9	=9	=9	=9	=9
.	.	.	.	.	.	16qqee/	.	.	.	.	.	.	.	.	.	.	.	.	.	.	.	.	.	.	.
8r	.	4e\	.	4b\	.	4dd\	.	2ryy	2ryy	2r	.	2r	.	4e/	f	4b\	f	8r	.	2ryy	2ryy	4bb\	.	4ddd\	.
8E\L	.	.	.	.	.	.	.	.	.	.	.	.	.	.	.	.	.	8E\L	.	.	.	.	.	.	.
8G#\	.	8e\L	.	(16a/LL	.	(16cc#\LL	.	.	.	.	.	.	.	4r	.	4r	.	8G#\	.	.	.	(16aa\LL	.	(16ccc#\LL	.
.	.	.	.	16g#/J)	.	16b\J	.	.	.	.	.	.	.	.	.	.	.	.	.	.	.	16gg#\J	.	16bb\J)	.
8E\J	.	8e\J	.	8g#'/J	.	8b\J)	.	.	.	.	.	.	.	.	.	.	.	8E\J	.	.	.	8gg#\J)	.	8bb\J	.
=10	=10	=10	=10	=10	=10	=10	=10	=10	=10	=10	=10	=10	=10	=10	=10	=10	=10	=10	=10	=10	=10	=10	=10	=10	=10
!LO:TX:t=P:problem:mixed beam	!	!	!	!	!	!	!	!	!	!	!	!	!	!	!	!	!	!LO:TX:t=P:problem:mixed beam	!	!	!	!	!	!	!
8A\L	.	4e\	.	8.cc#\L	.	(8ee'\L	.	2ryy	2ryy	2r	.	2r	.	4a\	.	4cc#\	.	8A\L	.	2ryy	2ryy	8.ccc#\L	.	8.eee\L	.
8AA\J	.	.	.	.	.	16cc#\L	.	.	.	.	.	.	.	.	.	.	.	8AA\J	.	.	.	.	.	.	.
!	!	!	!	!	!	!	!	!	!	!	!	!	!	!	!	!	!	!	!	!	!	!	!	!LO:N:vis=16	!
.	.	.	.	32a\LL	.	16dd\JJ)	.	.	.	.	.	.	.	.	.	.	.	.	.	.	.	32aa\LL	.	32ccc#\LL	.
!	!	!	!	!	!	!	!	!	!	!	!	!	!	!	!	!	!	!	!	!	!	!	!	!LO:N:vis=16	!
.	.	.	.	32b\JJJ	.	.	.	.	.	.	.	.	.	.	.	.	.	.	.	.	.	32bb\JJJ	.	32ddd\JJJ	.
4r	.	8e\	.	8cc#\	.	8ee\L	.	.	.	.	.	.	.	8a\	.	8cc#\	.	4r	.	.	.	8ccc#\	.	8eee\	.
.	.	8r	.	8r	.	8aa\J	.	.	.	.	.	.	.	8r	.	8r	.	.	.	.	.	8r	.	8r	.
=11	=11	=11	=11	=11	=11	=11	=11	=11	=11	=11	=11	=11	=11	=11	=11	=11	=11	=11	=11	=11	=11	=11	=11	=11	=11
8r	.	8e\	.	8r	.	8e/	.	2ryy	2ryy	2r	.	2r	.	4e/	.	8r	.	8r	.	2ryy	2ryy	8r	.	8r	.
8B\L	.	4g#\	.	4b\	.	(4dd\	.	.	.	.	.	.	.	.	.	8b\L	.	8B\L	.	.	.	4bb\	.	4ddd\	.
8G#\	.	.	.	.	.	.	.	.	.	.	.	.	.	8a\	.	8b\J	.	8G#\	.	.	.	.	.	.	.
8A\J	.	8e\	.	8b\	.	8cc#\)	.	.	.	.	.	.	.	8r	.	8cc#\	.	8A\J	.	.	.	8aa\	.	8ccc#\	.
=12	=12	=12	=12	=12	=12	=12	=12	=12	=12	=12	=12	=12	=12	=12	=12	=12	=12	=12	=12	=12	=12	=12	=12	=12	=12
4E\	.	4e\	.	4a/	.	4cc#\	.	2ryy	2ryy	2r	.	2r	.	4a\	.	4cc#\	.	4E\	.	2ryy	2ryy	4aa\	.	4ccc#\	.
.	.	.	.	(16qqg#/LL	.	16qqb/LL	.	.	.	.	.	.	.	.	.	.	.	.	.	.	.	16qqgg#/LL	.	16qqbb/LL	.
!	!	!	!	!	!	!LO:N:vis=4	!	!	!	!	!	!	!	!	!	!	!	!	!	!	!	!	!	!	!
.	.	.	.	16qqa/JJ)	.	16qqcc#/JJ	.	.	.	.	.	.	.	.	.	.	.	.	.	.	.	16qqaa/JJ	.	16qqccc#/JJ	.
8EE/	.	8e\	.	8g#/	.	8b\	.	.	.	.	.	.	.	8e/	.	8b\	.	8EE/	.	.	.	8gg#\	.	8bb\	.
8r	.	8r	.	8r	.	8r	.	.	.	.	.	.	.	8r	.	8r	.	8r	.	.	.	8r	.	8r	.
=13	=13	=13	=13	=13	=13	=13	=13	=13	=13	=13	=13	=13	=13	=13	=13	=13	=13	=13	=13	=13	=13	=13	=13	=13	=13
!	!	!	!	!	!LO:DY:a	!	!LO:DY:a	!	!	!	!	!	!	!LO:TX:a:t=4	!	!LO:TX:a:t=4	!	!	!	!	!	!LO:TX:a:t=7	!	!LO:TX:a:t=4	!
4E\	.	4.B/	.	16d/LL	p	4.b\	p	2ryy	2ryy	2r	.	2r	.	2r	.	2r	.	4E\	.	2ryy	2ryy	2r	.	2r	.
.	.	.	.	16e/	.	.	.	.	.	.	.	.	.	.	.	.	.	.	.	.	.	.	.	.	.
.	.	.	.	16d/	.	.	.	.	.	.	.	.	.	.	.	.	.	.	.	.	.	.	.	.	.
.	.	.	.	16e/JJ	.	.	.	.	.	.	.	.	.	.	.	.	.	.	.	.	.	.	.	.	.
4r	.	.	.	16d/LL	.	.	.	.	.	.	.	.	.	.	.	.	.	4r	.	.	.	.	.	.	.
.	.	.	.	16e/	.	.	.	.	.	.	.	.	.	.	.	.	.	.	.	.	.	.	.	.	.
.	.	8c#\	.	16d/	.	8cc#\	.	.	.	.	.	.	.	.	.	.	.	.	.	.	.	.	.	.	.
.	.	.	.	16e/JJ	.	.	.	.	.	.	.	.	.	.	.	.	.	.	.	.	.	.	.	.	.
=14	=14	=14	=14	=14	=14	=14	=14	=14	=14	=14	=14	=14	=14	=14	=14	=14	=14	=14	=14	=14	=14	=14	=14	=14	=14
8r	.	4G#/	.	16B/LL	.	4g#/	.	2ryy	2ryy	2r	.	2r	.	2r	.	2r	.	8r	.	2ryy	2ryy	2r	.	2r	.
.	.	.	.	16e/	.	.	.	.	.	.	.	.	.	.	.	.	.	.	.	.	.	.	.	.	.
8E\L	.	.	.	16B/	.	.	.	.	.	.	.	.	.	.	.	.	.	8E\L	.	.	.	.	.	.	.
.	.	.	.	16e/JJ	.	.	.	.	.	.	.	.	.	.	.	.	.	.	.	.	.	.	.	.	.
!	!	!LO:TX:t=P:problem:mixed beam	!	!	!	!	!	!	!	!	!	!	!	!	!	!	!	!	!	!	!	!	!	!	!
8C#\	.	8A\L	.	16c#/LL	.	8a/L	.	.	.	.	.	.	.	.	.	.	.	8C#\	.	.	.	.	.	.	.
.	.	.	.	16e/	.	.	.	.	.	.	.	.	.	.	.	.	.	.	.	.	.	.	.	.	.
8AA\J	.	16g#\L	.	16c#/	.	16b/L	.	.	.	.	.	.	.	.	.	.	.	8AA\J	.	.	.	.	.	.	.
.	.	16a\JJ	.	16e/JJ	.	16cc#/JJ	.	.	.	.	.	.	.	.	.	.	.	.	.	.	.	.	.	.	.
=15	=15	=15	=15	=15	=15	=15	=15	=15	=15	=15	=15	=15	=15	=15	=15	=15	=15	=15	=15	=15	=15	=15	=15	=15	=15
!LO:TX:t=P:problem:mixed beam	!	!	!	!	!	!	!	!	!	!	!	!	!	!	!	!	!	!LO:TX:t=P:problem:mixed beam	!	!	!	!	!	!	!
8BB\L	.	16cc#\LL	.	16B/LL	.	16ee\LL	.	2ryy	2ryy	2r	.	2r	.	2r	.	2r	.	8BB\L	.	2ryy	2ryy	2r	.	2r	.
.	.	16b\JJ	.	16e/	.	16dd\JJ	.	.	.	.	.	.	.	.	.	.	.	.	.	.	.	.	.	.	.
8B\	.	4b\	.	16B/	.	4dd\	.	.	.	.	.	.	.	.	.	.	.	8B\	.	.	.	.	.	.	.
.	.	.	.	16e/JJ	.	.	.	.	.	.	.	.	.	.	.	.	.	.	.	.	.	.	.	.	.
8G#\	.	.	.	16A/LL	.	.	.	.	.	.	.	.	.	.	.	.	.	8G#\	.	.	.	.	.	.	.
.	.	.	.	16e/	.	.	.	.	.	.	.	.	.	.	.	.	.	.	.	.	.	.	.	.	.
8A\J	.	8a\	.	16A/	.	8cc#\	.	.	.	.	.	.	.	.	.	.	.	8A\J	.	.	.	.	.	.	.
.	.	.	.	16e/JJ	.	.	.	.	.	.	.	.	.	.	.	.	.	.	.	.	.	.	.	.	.
=16	=16	=16	=16	=16	=16	=16	=16	=16	=16	=16	=16	=16	=16	=16	=16	=16	=16	=16	=16	=16	=16	=16	=16	=16	=16
4E\	.	4g#\	.	4e/	.	16cc#\LL	.	2ryy	2ryy	2r	.	2r	.	2r	.	2r	.	4E\	.	2ryy	2ryy	2r	.	2r	.
.	.	.	.	.	.	(16b\	.	.	.	.	.	.	.	.	.	.	.	.	.	.	.	.	.	.	.
.	.	.	.	.	.	16a#X\)	.	.	.	.	.	.	.	.	.	.	.	.	.	.	.	.	.	.	.
.	.	.	.	.	.	16b\JJ	.	.	.	.	.	.	.	.	.	.	.	.	.	.	.	.	.	.	.
4r	.	4r	.	4r	.	16an/LL	.	.	.	.	.	.	.	.	.	.	.	4r	.	.	.	.	.	.	.
.	.	.	.	.	.	(16g#/	.	.	.	.	.	.	.	.	.	.	.	.	.	.	.	.	.	.	.
.	.	.	.	.	.	16f#/)	.	.	.	.	.	.	.	.	.	.	.	.	.	.	.	.	.	.	.
.	.	.	.	.	.	16e/JJ	.	.	.	.	.	.	.	.	.	.	.	.	.	.	.	.	.	.	.
=17	=17	=17	=17	=17	=17	=17	=17	=17	=17	=17	=17	=17	=17	=17	=17	=17	=17	=17	=17	=17	=17	=17	=17	=17	=17
!LO:TX:t=P:problem:mixed beam	!	!	!	!	!	!	!LO:DY:a	!	!	!	!	!	!	!LO:TX:t=P:problem:brak 3 taktów	!	!LO:TX:a:i:t=Solocornu	!	!LO:TX:t=P:problem:mixed beam	!	!	!	!	!	!LO:TX:b:t=Dolce	!
8E/L	.	4.B/	.	(16d/LL	.	8b\	p	2ryy	2ryy	2r	.	2r	.	2ryy	.	4.b\	.	8E/L	.	2ryy	2ryy	2r	.	8bb\	.
.	.	.	.	16e/	.	.	.	.	.	.	.	.	.	.	.	.	.	.	.	.	.	.	.	.	.
8EE/J	.	.	.	16d/)	.	4b\	.	.	.	.	.	.	.	.	.	.	.	8EE/J	.	.	.	.	.	4bb\	.
.	.	.	.	16e/JJ	.	.	.	.	.	.	.	.	.	.	.	.	.	.	.	.	.	.	.	.	.
4r	.	.	.	16d/LL	.	.	.	.	.	.	.	.	.	.	.	.	.	4r	.	.	.	.	.	.	.
.	.	.	.	16e/	.	.	.	.	.	.	.	.	.	.	.	.	.	.	.	.	.	.	.	.	.
.	.	8c#/	.	16d/	.	8cc#\	.	.	.	.	.	.	.	.	.	8cc#\	.	.	.	.	.	.	.	8ccc#\	p
.	.	.	.	16e/JJ	.	.	.	.	.	.	.	.	.	.	.	.	.	.	.	.	.	.	.	.	.
=18	=18	=18	=18	=18	=18	=18	=18	=18	=18	=18	=18	=18	=18	=18	=18	=18	=18	=18	=18	=18	=18	=18	=18	=18	=18
8r	.	4G#/	.	16B/LL	.	4g#/	.	2ryy	2ryy	2r	.	2r	.	2ryy	.	4e/	.	8r	.	2ryy	2ryy	2r	.	4gg#\	.
.	.	.	.	16e/	.	.	.	.	.	.	.	.	.	.	.	.	.	.	.	.	.	.	.	.	.
8E\L	.	.	.	16B/	.	.	.	.	.	.	.	.	.	.	.	.	.	8E\L	.	.	.	.	.	.	.
.	.	.	.	16e/JJ	.	.	.	.	.	.	.	.	.	.	.	.	.	.	.	.	.	.	.	.	.
!	!	!LO:TX:t=P:problem:mixed beam	!	!	!	!	!	!	!	!	!	!	!	!	!	!	!	!	!	!	!	!	!	!	!
8C#\	.	8A\L	.	16c#/LL	.	8a/L	.	.	.	.	.	.	.	.	.	(8a\L	.	8C#\	.	.	.	.	.	8aa\L	.
.	.	.	.	16e/	.	.	.	.	.	.	.	.	.	.	.	.	.	.	.	.	.	.	.	.	.
8AA\J	.	16g#\L	.	16c#/	.	(16b/L	.	.	.	.	.	.	.	.	.	16b\L	.	8AA\J	.	.	.	.	.	16bb\L	.
.	.	16a\JJ	.	16e/JJ	.	16cc#/JJ)	.	.	.	.	.	.	.	.	.	16cc#\JJ)	.	.	.	.	.	.	.	16ccc#\JJ	.
=19	=19	=19	=19	=19	=19	=19	=19	=19	=19	=19	=19	=19	=19	=19	=19	=19	=19	=19	=19	=19	=19	=19	=19	=19	=19
!LO:TX:t=P:problem:mixed beam	!	!	!	!	!	!	!	!	!	!	!	!	!	!	!	!	!	!LO:TX:t=P:problem:mixed beam	!	!	!	!	!	!	!
8BB\L	.	16cc#\LL	.	16B/LL	.	16ee\LL	.	2ryy	2ryy	2r	.	2r	.	2ryy	.	(16ee\LL	.	8BB\L	.	2ryy	2ryy	2r	.	16eee\LL	.
.	.	16b\JJ	.	(16e/	.	16dd\JJ	.	.	.	.	.	.	.	.	.	16dd\JJ)	.	.	.	.	.	.	.	16ddd\JJ	.
8B\	.	4b\	.	16B/)	.	4dd\	.	.	.	.	.	.	.	.	.	(4dd\	.	8B\	.	.	.	.	.	4ddd\	.
.	.	.	.	16e/JJ	.	.	.	.	.	.	.	.	.	.	.	.	.	.	.	.	.	.	.	.	.
8G#\	.	.	.	16A/LL	.	.	.	.	.	.	.	.	.	.	.	.	.	8G#\	.	.	.	.	.	.	.
.	.	.	.	16e/	.	.	.	.	.	.	.	.	.	.	.	.	.	.	.	.	.	.	.	.	.
8A\J	.	8a\	.	16A/	.	8cc#\	.	.	.	.	.	.	.	.	.	8cc#\)	.	8A\J	.	.	.	.	.	8ccc#\	.
.	.	.	.	16e/JJ	.	.	.	.	.	.	.	.	.	.	.	.	.	.	.	.	.	.	.	.	.
=20	=20	=20	=20	=20	=20	=20	=20	=20	=20	=20	=20	=20	=20	=20	=20	=20	=20	=20	=20	=20	=20	=20	=20	=20	=20
!LO:TX:t=P:problem:mixed beam	!	!	!	!	!LO:DY:a	!	!LO:DY:a	!	!	!	!	!	!	!	!	!	!	!LO:TX:t=P:problem:mixed beam	!	!	!	!	!	!	!
8D/L	.	8f#\L	f	8d/L	f	8b\L	f	2ryy	2ryy	2r	.	2r	.	4r	.	8b\	.	8D/L	.	2ryy	2ryy	8dd\L	f	8bb\L	.
!	!	!	!	!	!	!	!	!	!	!	!	!	!	!	!	!	!	!	!	!	!	!LO:TX:t=P:problem:klamra łukowa	!	!LO:TX:t=P:problem:klamra łukowa	!
8D/	.	8f#\	.	24f#/L	.	24dd\L	.	.	.	.	.	.	.	.	.	8r	.	8D/	.	.	.	24ff#\L	.	24ddd\L	.
.	.	.	.	24e/	.	24cc#\	.	.	.	.	.	.	.	.	.	.	.	.	.	.	.	24ee\	.	24ccc#\	.
.	.	.	.	24d/JJ	.	24b\JJ	.	.	.	.	.	.	.	.	.	.	.	.	.	.	.	24dd\JJ	.	24bb\JJ	.
8E/	.	8e\	.	8c#/L	.	8a/L	.	.	.	.	.	.	.	8a\L	.	8cc#\L	.	8E/	.	.	.	8cc#\L	.	8aa\L	.
8EE/J	.	8e\J	.	8B/J	.	8g#/J	.	.	.	.	.	.	.	8e\J	.	8b\J	.	8EE/J	.	.	.	8b\J	.	8gg#\J	.
=21	=21	=21	=21	=21	=21	=21	=21	=21	=21	=21	=21	=21	=21	=21	=21	=21	=21	=21	=21	=21	=21	=21	=21	=21	=21
!	!	!	!	!	!	!	!LO:DY:a	!	!	!	!	!	!	!LO:TX:a:t=3	!	!LO:TX:a:t=3	!	!	!	!	!	!LO:TX:a:t=4	!	!LO:TX:a:t=4	!
8r	.	(8.a\L	fp	(8.ff#\L	fp	8.aa\L	fp	2ryy	2ryy	2r	.	2r	.	2r	.	2r	.	8r	.	2ryy	2ryy	2r	.	2r	.
8D\L	.	.	.	.	.	.	.	.	.	.	.	.	.	.	.	.	.	8D\L	.	.	.	.	.	.	.
.	.	32g#\LL	.	32ee\LL	.	(32gg#\LL	.	.	.	.	.	.	.	.	.	.	.	.	.	.	.	.	.	.	.
.	.	32f#\JJJ)	.	32dd\JJJ)	.	32ff#\JJJ)	.	.	.	.	.	.	.	.	.	.	.	.	.	.	.	.	.	.	.
!	!	!	!	!LO:N:vis=4	!	!	!	!	!	!	!	!	!	!	!	!	!	!	!	!	!	!	!	!	!
8D\	.	8f#'\L	.	8dd\	.	8ff#\	.	.	.	.	.	.	.	.	.	.	.	8D\	.	.	.	.	.	.	.
8D\J	.	8f#'\J	.	8r	.	8r	.	.	.	.	.	.	.	.	.	.	.	8D\J	.	.	.	.	.	.	.
=22	=22	=22	=22	=22	=22	=22	=22	=22	=22	=22	=22	=22	=22	=22	=22	=22	=22	=22	=22	=22	=22	=22	=22	=22	=22
!	!	!	!	!	!	!	!LO:DY:a	!	!	!	!	!	!	!	!	!	!	!	!	!	!	!	!	!	!
8r	.	(8.f#\L	f	(8.dd\L	fp	8.ff#\L	fp	2ryy	2ryy	2r	.	2r	.	2r	.	2r	.	8r	.	2ryy	2ryy	2r	.	2r	.
8B\L	.	.	.	.	.	.	.	.	.	.	.	.	.	.	.	.	.	8B\L	.	.	.	.	.	.	.
.	.	32e\LL	.	32cc#\LL	.	(32ee\LL	.	.	.	.	.	.	.	.	.	.	.	.	.	.	.	.	.	.	.
.	.	32d\JJJ)	p	32b\JJJ)	.	32dd\JJJ	.	.	.	.	.	.	.	.	.	.	.	.	.	.	.	.	.	.	.
8B\	.	8d'\L	.	8b\	.	8dd\)	.	.	.	.	.	.	.	.	.	.	.	8B\	.	.	.	.	.	.	.
8B\J	.	8d'\J	.	8r	.	8r	.	.	.	.	.	.	.	.	.	.	.	8B\J	.	.	.	.	.	.	.
=23	=23	=23	=23	=23	=23	=23	=23	=23	=23	=23	=23	=23	=23	=23	=23	=23	=23	=23	=23	=23	=23	=23	=23	=23	=23
8r	.	(8.d\L	fp	(8.b\L	.	8.dd\L	.	2ryy	2ryy	2r	.	2r	.	2r	.	2r	.	8r	.	2ryy	2ryy	2r	.	2r	.
8B\L	.	.	.	.	.	.	.	.	.	.	.	.	.	.	.	.	.	8B\L	.	.	.	.	.	.	.
.	.	32c#\LL	.	32a\LL	.	(32cc#\LL	.	.	.	.	.	.	.	.	.	.	.	.	.	.	.	.	.	.	.
.	.	32B\JJJ)	.	32g#\JJJ)	.	32b\JJJ)	.	.	.	.	.	.	.	.	.	.	.	.	.	.	.	.	.	.	.
8G#\	.	8B\L	.	8g#/L	.	(8b\L	.	.	.	.	.	.	.	.	.	.	.	8G#\	.	.	.	.	.	.	.
8E\J	.	8d\J	.	8b/J	.	8dd\J)	.	.	.	.	.	.	.	.	.	.	.	8E\J	.	.	.	.	.	.	.
=24	=24	=24	=24	=24	=24	=24	=24	=24	=24	=24	=24	=24	=24	=24	=24	=24	=24	=24	=24	=24	=24	=24	=24	=24	=24
!LO:TX:t=P:problem:mixed beam	!	!	!	!	!	!	!	!	!	!	!	!	!	!	!	!	!	!LO:TX:t=P:problem:mixed beam	!	!	!	!	!	!	!
8A/L	.	8e'\L	.	16cc#\LL	.	16ee\LL	.	2ryy	2ryy	2r	.	2r	.	8a\	p	8cc#\	p	8A/L	.	2ryy	2ryy	2r	.	2r	.
.	.	.	.	16a\	.	16cc#\	.	.	.	.	.	.	.	.	.	.	.	.	.	.	.	.	.	.	.
8D/	.	8f#'\	.	16f#\	.	(16dd\	.	.	.	.	.	.	.	8r	.	8r	.	8D/	.	.	.	.	.	.	.
.	.	.	.	16d\JJ	.	16b\JJ)	.	.	.	.	.	.	.	.	.	.	.	.	.	.	.	.	.	.	.
8E/	.	8e\	.	8c#/L	.	(8a/L	.	.	.	.	.	.	.	8a\L	.	8cc#\L	.	8E/	.	.	.	.	.	.	.
!	!	!	!	!	!LO:DY:a	!	!	!	!	!	!	!	!	!	!	!	!	!	!	!	!	!	!	!	!
8EE/J	.	8e\J	.	8B/J	fp	8g#X/J)	.	.	.	.	.	.	.	8g#\J	.	8b\J	.	8EE/J	.	.	.	.	.	.	.
=25	=25	=25	=25	=25	=25	=25	=25	=25	=25	=25	=25	=25	=25	=25	=25	=25	=25	=25	=25	=25	=25	=25	=25	=25	=25
!	!	!	!	!	!	!	!LO:DY:a	!	!	!	!	!	!	!LO:TX:a:t=3	!	!LO:TX:a:t=3	!	!	!	!	!	!	!	!	!
8r	.	8r	.	8.a/L	.	8.cc#\L	fp	2ryy	2ryy	2r	.	2r	.	2r	.	2r	.	8r	.	2ryy	2ryy	(8.aa\L	p	(8.ccc#\L	.
8d\L	.	8f#\L	.	.	.	.	.	.	.	.	.	.	.	.	.	.	.	8d\L	.	.	.	.	.	.	.
.	.	.	.	32g#/LL	.	(32b\LL	.	.	.	.	.	.	.	.	.	.	.	.	.	.	.	32gg#\LL	.	32bb\LL	.
.	.	.	.	32f#/JJJ	.	32a\JJJ)	.	.	.	.	.	.	.	.	.	.	.	.	.	.	.	32ff#\JJJ)	.	32aa\JJJ)	.
8d\	.	8f#\	.	8f#/	.	8a/	.	.	.	.	.	.	.	.	.	.	.	8d\	.	.	.	8ff#\	.	8aa\	.
8d\J	.	8f#\J	.	8r	.	8r	.	.	.	.	.	.	.	.	.	.	.	8d\J	.	.	.	8r	.	8r	.
=26	=26	=26	=26	=26	=26	=26	=26	=26	=26	=26	=26	=26	=26	=26	=26	=26	=26	=26	=26	=26	=26	=26	=26	=26	=26
!	!	!	!	!	!	!	!LO:DY:a	!	!	!	!	!	!	!	!	!	!	!	!	!	!	!	!	!	!
8r	.	8r	.	8.f#/L	.	8.a/L	fp	2ryy	2ryy	2r	.	2r	.	2r	.	2r	.	8r	.	2ryy	2ryy	(8.ff#\L	.	(8.aa\L	.
8d\L	.	8b\L	.	.	.	.	.	.	.	.	.	.	.	.	.	.	.	8d\L	.	.	.	.	.	.	.
.	.	.	.	32e/LL	.	(32g#/LL	.	.	.	.	.	.	.	.	.	.	.	.	.	.	.	32ee\LL	.	32gg#\LL	.
.	.	.	.	32d/JJJ	.	32f#/JJJ)	.	.	.	.	.	.	.	.	.	.	.	.	.	.	.	32dd\JJJ)	.	32ff#\JJJ)	.
8d\	.	8b\	.	8d/	.	8f#/	.	.	.	.	.	.	.	.	.	.	.	8d\	.	.	.	8dd\	.	8ff#\	.
8d\J	.	8b\J	.	8r	.	8r	.	.	.	.	.	.	.	.	.	.	.	8d\J	.	.	.	8r	.	8r	.
=27	=27	=27	=27	=27	=27	=27	=27	=27	=27	=27	=27	=27	=27	=27	=27	=27	=27	=27	=27	=27	=27	=27	=27	=27	=27
!	!	!	!	!	!	!	!LO:DY:a	!	!	!	!	!	!	!	!	!	!	!	!	!	!	!	!	!	!
8r	.	8r	.	8.dd\L	.	8.ff#\L	fp	2ryy	2ryy	2r	.	2r	.	2r	.	2r	.	8r	.	2ryy	2ryy	(8.dd\L	.	(8.ff#\L	.
8B\L	.	8e\L	.	.	.	.	.	.	.	.	.	.	.	.	.	.	.	8B\L	.	.	.	.	.	.	.
.	.	.	.	32cc#\LL	.	(32ee\LL	.	.	.	.	.	.	.	.	.	.	.	.	.	.	.	32cc#\LL	.	32ee\LL	.
.	.	.	.	32b\JJJ	.	32dd\JJJ)	.	.	.	.	.	.	.	.	.	.	.	.	.	.	.	32b\JJJ)	.	32dd\JJJ)	.
8G#\	.	8e\	.	8b\L	.	8dd'\L	.	.	.	.	.	.	.	.	.	.	.	8G#\	.	.	.	8b\	.	8dd\	.
8E\J	.	8g#\J	.	8b\J	.	8dd'\J	.	.	.	.	.	.	.	.	.	.	.	8E\J	.	.	.	8r	.	8r	.
=28	=28	=28	=28	=28	=28	=28	=28	=28	=28	=28	=28	=28	=28	=28	=28	=28	=28	=28	=28	=28	=28	=28	=28	=28	=28
!LO:TX:t=P:problem:mixed beam	!	!	!	!	!	!	!	!	!	!	!	!	!	!	!	!	!	!LO:TX:t=P:problem:mixed beam	!	!	!	!	!	!	!
8A\L	.	8e\L	f	8a/L	f	(16cc#\LL	.	2ryy	2ryy	2r	.	2r	.	4a\	.	4cc#\	.	8A\L	.	2ryy	2ryy	4r	.	4r	.
.	.	.	.	.	.	16dd\	.	.	.	.	.	.	.	.	.	.	.	.	.	.	.	.	.	.	.
8C#\	.	8e\	.	16c#/L	.	16a\	.	.	.	.	.	.	.	.	.	.	.	8C#\	.	.	.	.	.	.	.
.	.	.	.	16e/JJ	.	16cc#\JJ)	.	.	.	.	.	.	.	.	.	.	.	.	.	.	.	.	.	.	.
8D\	.	8f#\	.	(16d/LL	.	(16b\LL	.	.	.	.	.	.	.	8e/L	.	8b\L	.	8D\	.	.	.	(16dd\LL	f	(16bb\LL	.
.	.	.	.	16f#/	.	16dd\	.	.	.	.	.	.	.	.	.	.	.	.	.	.	.	16ff#\	.	16ddd\)	.
8E\J	.	8e\J	.	16B/)	.	16g#\	.	.	.	.	.	.	.	8e/J	.	8b\J	.	8E\J	.	.	.	16b\	.	(16gg#\	.
.	.	.	.	16d/JJ	.	16b\JJ)	.	.	.	.	.	.	.	.	.	.	.	.	.	.	.	16dd\JJ)	.	16bb\JJ)	.
=29	=29	=29	=29	=29	=29	=29	=29	=29	=29	=29	=29	=29	=29	=29	=29	=29	=29	=29	=29	=29	=29	=29	=29	=29	=29
!LO:TX:t=P:problem:mixed beam	!	!	!	!	!	!	!	!	!	!	!	!	!	!	!	!	!	!LO:TX:t=P:problem:mixed beam	!	!	!	!	!	!	!
8AA\L	.	4e\	.	4d/	.	(4b/	.	2ryy	2ryy	2r	.	2r	.	4e/	.	4b\	.	8AA\L	.	2ryy	2ryy	4dd\	.	(4bb\	.
8A\	.	.	.	.	.	.	.	.	.	.	.	.	.	.	.	.	.	8A\	.	.	.	.	.	.	.
8AA\J	.	8e\	.	8c#/	.	8a/)	.	.	.	.	.	.	.	8A/	.	8a\	.	8AA\J	.	.	.	8cc#\	.	8aa\)	.
8r	.	8r	.	8r	.	8r	.	.	.	.	.	.	.	8r	.	8r	.	8r	.	.	.	8r	.	8r	.
=30	=30	=30	=30	=30	=30	=30	=30	=30	=30	=30	=30	=30	=30	=30	=30	=30	=30	=30	=30	=30	=30	=30	=30	=30	=30
!	!	!	!	!	!LO:DY:a	!LO:N:vis=8	!LO:DY:a	!	!	!	!	!LO:TX:a:t=dolce	!	!LO:TX:a:t=21	!	!LO:TX:a:t=21	!	!	!	!	!	!	!	!LO:TX:a:t=1.	!
4AA/	.	4c#\	.	4c#/	p	4a/	p	2ryy	2ryy	2r	.	4a\	Pra-	2r	.	2r	.	4AA/	.	2ryy	2ryy	2r	.	2r	.
8r	.	8r	p	(32e/KLL	.	(32cc#\KLL	.	.	.	.	.	32cc#\KLL	.	.	.	.	.	8r	.	.	.	.	.	.	.
.	.	.	.	16.c#/JJ)	.	16.a\JJ)	.	.	.	.	.	16.a\JJ	.	.	.	.	.	.	.	.	.	.	.	.	.
8D\	.	8e\	.	32f#/KLL	.	(32dd\KLL	.	.	.	.	.	32dd\KLL	-gnę	.	.	.	.	8D\	.	.	.	.	.	.	.
.	.	.	.	16.d/JJ	.	16.b\JJ)	.	.	.	.	.	16.b\JJ	.	.	.	.	.	.	.	.	.	.	.	.	.
=31	=31	=31	=31	=31	=31	=31	=31	=31	=31	=31	=31	=31	=31	=31	=31	=31	=31	=31	=31	=31	=31	=31	=31	=31	=31
4E\	.	4e\	.	8.B/L	.	8.g#/L	.	2ryy	2ryy	4r	.	8.g#\L	pra-	2r	.	2r	.	4E\	.	2ryy	2ryy	4r	.	4r	.
.	.	.	.	(32c#/LL	.	(32a/LL	.	.	.	.	.	32a\LL	.	.	.	.	.	.	.	.	.	.	.	.	.
.	.	.	.	32d/JJJ)	.	32b/JJJ)	.	.	.	.	.	32b\JJJ	.	.	.	.	.	.	.	.	.	.	.	.	.
8AA/	.	8e\L	.	8c#/L	.	8a/L	.	.	.	8r	.	8a\	-gnę	.	.	.	.	8AA/	.	.	.	8r	.	8r	.
!	!	!	!	!	!	!	!	!	!	!LO:TX:a:t=sic&colon;s=8g#	!	!	!	!	!	!	!	!	!	!	!	!	!	!	!
8r	.	8B\J	.	8g#/J	.	8b/J	.	.	.	(8f#\	stać	8b\	stac	.	.	.	.	8r	.	.	.	8gg#\	.	(8bb\	p
=32	=32	=32	=32	=32	=32	=32	=32	=32	=32	=32	=32	=32	=32	=32	=32	=32	=32	=32	=32	=32	=32	=32	=32	=32	=32
4r	.	8c#\L	.	8a/L	.	8cc#'\L	.	2ryy	2ryy	8a\L	pod	8cc#\L	pod	2r	.	2r	.	4r	.	2ryy	2ryy	(8aa\L	pp	8ccc#\L	.
.	.	8d\	.	8b/J	.	8dd'\J	.	.	.	8b\)	.	8dd\	.	.	.	.	.	.	.	.	.	8bb\J	.	8ddd\J	.
8r	.	8e\	.	8cc#'\L	.	8ee\L	.	.	.	8cc#\J	krzy-	8ee\J	krzy-	.	.	.	.	8r	.	.	.	8ccc#\L	.	8eee\L	.
8D\	.	16f#\L	.	(16dd\L	.	(16ff#\L	.	.	.	16dd\LL	-zem	16ff#\LL	-zem	.	.	.	.	8D\	.	.	.	16ddd\L	.	16fff#\L	.
!	!	!	!	!	!	!	!	!	!	!	!	!	!	!	!	!	!	!	!	!	!	!	!	!LO:TX:t=P:problem:brak kreski taktowej	!
.	.	16d\JJ	.	16b\JJ)	.	16dd\JJ)	.	.	.	16b\JJ	.	16dd\JJ	.	.	.	.	.	.	.	.	.	16bb\JJ)	.	16ddd\JJ)	.
=33	=33	=33	=33	=33	=33	=33	=33	=33	=33	=33	=33	=33	=33	=33	=33	=33	=33	=33	=33	=33	=33	=33	=33	=33	=33
.	.	16qqd/	.	8qqb/	.	16qqdd/	.	.	.	.	.	.	.	.	.	.	.	.	.	.	.	.	.	.	.
4E\	.	4c#\	.	4a/	.	4cc#\	.	2ryy	2ryy	4a\	z to-	4cc#\	z to-	2r	.	2r	.	4E\	.	2ryy	2ryy	4aa\	.	4ccc#\	.
!	!	!LO:TX:t=P:problem:mixed beam	!	!	!	!	!	!	!	!	!	!	!	!	!	!	!	!	!	!	!	!	!	!	!
8EE/	.	8B\L	.	8g#/	.	8b\	.	.	.	8g#\	-bą	8b\	-bą	.	.	.	.	8EE/	.	.	.	8gg#\	.	8bb\	.
8r	.	8e\J	.	8r	.	8r	.	.	.	8r	.	8r	.	.	.	.	.	8r	.	.	.	8r	.	8r	.
=34	=34	=34	=34	=34	=34	=34	=34	=34	=34	=34	=34	=34	=34	=34	=34	=34	=34	=34	=34	=34	=34	=34	=34	=34	=34
!	!	!	!	!	!	!	!	!	!	!	!	!	!	!	!	!	!	!	!	!	!	!LO:TX:a:t=2	!	!	!
8r	.	4e\	.	4b\	.	4dd\	.	2ryy	2ryy	(4b\	pra-	4dd\	pra-	2r	.	2r	.	8r	.	2ryy	2ryy	2r	.	2r	.
!LO:TX:t=P:problem:mixed beam	!	!	!	!	!	!	!	!	!	!	!	!	!	!	!	!	!	!	!	!	!	!	!	!	!
8E\L	.	.	.	.	.	.	.	.	.	.	.	.	.	.	.	.	.	8E\L	.	.	.	.	.	.	.
8G#\	.	8e\L	.	(16a\LL	.	(16cc#\LL	.	.	.	16a\LL)	.	16cc#\LL	.	.	.	.	.	8G#\	.	.	.	.	.	.	.
.	.	.	.	16g#\J)	.	16b\J)	.	.	.	16g#\JJ	.	16b\JJ	.	.	.	.	.	.	.	.	.	.	.	.	.
8E\J	.	8e\J	.	8g#'\J	.	8b'\J	.	.	.	8g#\	-gnę	8b\	-gnę	.	.	.	.	8E\J	.	.	.	.	.	.	.
=35	=35	=35	=35	=35	=35	=35	=35	=35	=35	=35	=35	=35	=35	=35	=35	=35	=35	=35	=35	=35	=35	=35	=35	=35	=35
!LO:TX:t=P:problem:mixed beam	!	!	!	!	!	!	!	!	!	!	!	!	!	!	!	!	!	!LO:TX:t=P:problem:mixed beam	!	!	!	!	!	!	!
8A\L	.	4e\	.	8.cc#\L	.	8.ee\L	.	2ryy	2ryy	8.cc#\L	pod	8.ee\L	pod	2r	.	2r	.	8A\L	.	2ryy	2ryy	2r	.	4r	.
8AA\J	.	.	.	.	.	.	.	.	.	.	.	.	.	.	.	.	.	8AA\J	.	.	.	.	.	.	.
.	.	.	.	32a\LL	.	(32cc#\LL	.	.	.	32a\LL	Krzy-	32cc#\LL	.	.	.	.	.	.	.	.	.	.	.	.	.
.	.	.	.	32b\JJJ	.	32dd\JJJ)	.	.	.	32b\JJJ	.	32dd\JJJ	.	.	.	.	.	.	.	.	.	.	.	.	.
!	!	!	!	!	!	!LO:TX:t=P:problem:mixed beam	!	!	!	!	!	!	!	!	!	!	!	!	!	!	!	!	!	!	!
4r	.	8e\	.	8b\	.	8ee/L	.	.	.	8cc#\	-zem	8ee\	Krzy-	.	.	.	.	4r	.	.	.	.	.	8r	.
.	.	8r	.	8r	.	8e/J	.	.	.	8r	.	8e/	-zem	.	.	.	.	.	.	.	.	.	.	8ee\	pp
=36	=36	=36	=36	=36	=36	=36	=36	=36	=36	=36	=36	=36	=36	=36	=36	=36	=36	=36	=36	=36	=36	=36	=36	=36	=36
!	!	!LO:TX:t=P:problem:2\right:global	!	!	!	!	!	!	!	!	!	!	!	!	!	!	!	!	!	!	!	!	!	!	!
4AA/	.	2e\	.	8c#/	.	8a/	.	2ryy	2ryy	8c#\	z to-	(8a\	z to-	2r	.	2r	.	4AA/	.	2ryy	2ryy	8cc#\	.	8aa\	.
.	.	.	.	4e/	.	(4cc#/	.	.	.	4e\	.	4cc#\)	.	.	.	.	.	.	.	.	.	4ee\	.	4ccc#\	.
4E\	.	.	.	.	.	.	.	.	.	.	.	.	.	.	.	.	.	4E\	.	.	.	.	.	.	.
.	.	.	.	8d/	.	8b/)	.	.	.	8d\	.	8b\	.	.	.	.	.	.	.	.	.	8dd\	.	8bb\	.
=37	=37	=37	=37	=37	=37	=37	=37	=37	=37	=37	=37	=37	=37	=37	=37	=37	=37	=37	=37	=37	=37	=37	=37	=37	=37
4AA/	.	4e\	.	4d/	.	4b/	.	2ryy	2ryy	4d\	.	4b\	.	2r	.	2r	.	4AA/	.	2ryy	2ryy	4dd\	.	4bbT\	.
.	.	.	.	16qqc#/LL	.	16qqa/LL	.	.	.	16qqc#/LL	.	16qqa/LL	.	.	.	.	.	.	.	.	.	.	.	.	.
.	.	.	.	16qqd/JJ	.	16qqb/JJ	.	.	.	16qqd/JJ	.	16qqb/JJ	.	.	.	.	.	.	.	.	.	.	.	.	.
8AA/	.	8e\	.	8c#/	.	8a/	.	.	.	8c#\	-bą	8a\	-bą	.	.	.	.	8AA/	.	.	.	8cc#\	.	8aa\	.
8r	.	8r	.	8r	.	8r	.	.	.	8r	.	8r	.	.	.	.	.	8r	.	.	.	8r	.	8r	.
=38	=38	=38	=38	=38	=38	=38	=38	=38	=38	=38	=38	=38	=38	=38	=38	=38	=38	=38	=38	=38	=38	=38	=38	=38	=38
!	!	!	!	!	!	!	!	!	!	!	!	!	!	!	!	!	!	!	!	!	!	!LO:TX:a:t=5	!	!LO:TX:a:t=5	!
8r	.	8r	.	4g#/	.	4b\	.	2ryy	2ryy	(4g#\	dzie-	4b\	Dzie-	2r	.	2r	.	8r	.	2ryy	2ryy	2r	.	2r	.
8E\L	.	8b\L	.	.	.	.	.	.	.	.	.	.	.	.	.	.	.	8E\L	.	.	.	.	.	.	.
8E\	.	8b\	.	16g#/LL	.	(16ee\LL	.	.	.	16g#\LL	.	16ee\LL	.	.	.	.	.	8E\	.	.	.	.	.	.	.
.	.	.	.	16f#/	.	16dd#X\	.	.	.	16f#\JJ)	.	16dd#X\JJ	.	.	.	.	.	.	.	.	.	.	.	.	.
8E\J	.	8b\J	.	16a/	.	16cc#\)	.	.	.	16a\LL	-lić	16cc#\LL	-lic	.	.	.	.	8E\J	.	.	.	.	.	.	.
.	.	.	.	16g#/JJ	.	16b\JJ	.	.	.	16g#\JJ	.	16b\JJ	.	.	.	.	.	.	.	.	.	.	.	.	.
=39	=39	=39	=39	=39	=39	=39	=39	=39	=39	=39	=39	=39	=39	=39	=39	=39	=39	=39	=39	=39	=39	=39	=39	=39	=39
8r	.	8r	.	16g#/LL	.	16b\LL	.	2ryy	2ryy	16g#\LL	się	16b\LL	się	2r	.	2r	.	8r	.	2ryy	2ryy	2r	.	2r	.
.	.	.	.	16f#/	.	(16a\	.	.	.	16f#\	.	16a\	.	.	.	.	.	.	.	.	.	.	.	.	.
8F#\L	.	8b\L	.	16e#X/	.	16g#\	.	.	.	16e#X\	mo-	16g#\	mo-	.	.	.	.	8F#\L	.	.	.	.	.	.	.
.	.	.	.	16f#/JJ	.	16a\JJ)	.	.	.	16f#\JJ	.	16a\JJ	.	.	.	.	.	.	.	.	.	.	.	.	.
8F#\	.	8b\	.	8f#/L	.	8a\	.	.	.	8f#\	-ią	8a\	-ią	.	.	.	.	8F#\	.	.	.	.	.	.	.
8F#\J	.	8b\J	.	8f#/J	.	8r	.	.	.	8r	.	8r	.	.	.	.	.	8F#\J	.	.	.	.	.	.	.
=40	=40	=40	=40	=40	=40	=40	=40	=40	=40	=40	=40	=40	=40	=40	=40	=40	=40	=40	=40	=40	=40	=40	=40	=40	=40
8r	.	4b\	.	8.f#/L	.	8.a\L	.	2ryy	2ryy	(8.f#\L	o-	8.a\L	o-	2r	.	2r	.	8r	.	2ryy	2ryy	2r	.	2r	.
8BB/L	.	.	.	.	.	.	.	.	.	.	.	.	.	.	.	.	.	8BB/L	.	.	.	.	.	.	.
.	.	.	.	32g#/LL	.	(32b\LL	.	.	.	32g#\LL	.	32b\LL	.	.	.	.	.	.	.	.	.	.	.	.	.
.	.	.	.	32a/JJJ	.	32cc#\JJJ)	.	.	.	32a\JJJ	.	32cc#\JJJ	.	.	.	.	.	.	.	.	.	.	.	.	.
8D#X/	.	8b\L	.	(16a/LL	.	16cc#\LL	.	.	.	16a\LL	.	16cc#\LL	.	.	.	.	.	8D#X/	.	.	.	.	.	.	.
.	.	.	.	16g#/)	.	(16b\	.	.	.	16g#\JJ	.	16b\JJ	.	.	.	.	.	.	.	.	.	.	.	.	.
8BB/J	.	8b\J	.	(16g#/	.	(16b\)	.	.	.	16g#\LL)	.	16b\LL	.	.	.	.	.	8BB/J	.	.	.	.	.	.	.
.	.	.	.	16f#/JJ)	.	16a\JJ)	.	.	.	16f#\JJ	.	16a\JJ	.	.	.	.	.	.	.	.	.	.	.	.	.
=41	=41	=41	=41	=41	=41	=41	=41	=41	=41	=41	=41	=41	=41	=41	=41	=41	=41	=41	=41	=41	=41	=41	=41	=41	=41
4E\	.	4b\	.	4f#/	.	4a/	.	2ryy	2ryy	4f#\	-so-	4a\	-so-	2r	.	2r	.	4E/	.	2ryy	2ryy	2r	.	2r	.
!	!	!	!	!	!	!LO:TX:t=P:problem:mixed beam	!	!	!	!	!	!	!	!	!	!	!	!	!	!	!	!	!	!	!
8EE/	.	8b\	.	8en/L	.	8g#\L	.	.	.	8e\	-bą	8g#\	-bą	.	.	.	.	8EE/	.	.	.	.	.	.	.
8r	.	8r	.	8g#/J	.	(16ee\L	.	.	.	16g#\	o-	16ee\	o-	.	.	.	.	8r	.	.	.	.	.	.	.
.	.	.	.	.	.	16dd#X\JJ)	.	.	.	16g#\	.	16dd#X\	.	.	.	.	.	.	.	.	.	.	.	.	.
=42	=42	=42	=42	=42	=42	=42	=42	=42	=42	=42	=42	=42	=42	=42	=42	=42	=42	=42	=42	=42	=42	=42	=42	=42	=42
!	!	!	!	!	!	!LO:TX:a:t=sic&colon;s=16dd#	!	!	!	!	!	!LO:TX:a:t=sic&colon;s=16dd#	!	!	!	!	!	!	!	!	!	!	!	!	!
4AA/	.	4e\	.	8a'/L	.	(16dd\LL	.	2ryy	2ryy	8a\	-so-	16dd\LL	.	2r	.	2r	.	4AA/	.	2ryy	2ryy	2r	.	2r	.
.	.	.	.	.	.	16cc#\	.	.	.	.	.	16cc#\JJ	.	.	.	.	.	.	.	.	.	.	.	.	.
.	.	.	.	(16cc#/L	.	16aa\)	.	.	.	16cc#\LL	.	16aa\LL	.	.	.	.	.	.	.	.	.	.	.	.	.
!	!	!	!	!	!	!LO:TX:a:t=sic&colon;s=16gg#	!	!	!	!	!	!	!	!	!	!	!	!	!	!	!	!	!	!	!
.	.	.	.	16b/JJ)	.	16ff#\JJ	.	.	.	16b\JJ	.	16gg#\JJ	.	.	.	.	.	.	.	.	.	.	.	.	.
!	!	!LO:TX:t=P:problem:mixed beam	!	!	!	!	!	!	!	!	!	!	!	!	!	!	!	!	!	!	!	!	!	!	!
8A\L	.	8c#\L	.	8a/L	.	8ff#'\L	.	.	.	8a\	.	8ff#\	.	.	.	.	.	8A\L	.	.	.	.	.	.	.
8A#X\J	.	8cc#\J	.	8g#/J	.	8ee'\J	.	.	.	8g#\	.	8ee\	.	.	.	.	.	8A#X\J	.	.	.	.	.	.	.
=43	=43	=43	=43	=43	=43	=43	=43	=43	=43	=43	=43	=43	=43	=43	=43	=43	=43	=43	=43	=43	=43	=43	=43	=43	=43
*tremolo	*	*	*	*	*	*	*	*	*	*	*	*	*	*	*	*	*	*	*	*	*	*	*	*	*
*	*	*	*	*	*	*tremolo	*	*	*	*	*	*	*	*	*	*	*	*	*	*	*	*	*	*	*
*	*	*	*	*	*	*	*	*	*	*	*	*	*	*	*	*	*	*tremolo	*	*	*	*	*	*	*
!	!	!	!	!	!	!LO:TX:t=P:problem:4 kropki art.	!	!	!	!	!	!	!	!	!	!	!	!	!	!	!	!	!	!	!
!	!	!	!	!	!	!LO:N:vis=2.	!LO:DY:a	!	!	!	!	!	!	!	!	!	!	!LO:TX:t=P:problem:2\right:global	!	!	!	!	!	!	!
8B\L	.	8b\L	.	8f#/L	.	8dd#X\L	fp	2ryy	2ryy	8f#\	.	8dd#X\	-so-	2r	.	2r	.	8B\L	.	2ryy	2ryy	4r	.	4r	.
!	!	!LO:TX:a:t=|:problem	!	!	!	!	!	!	!	!	!	!	!	!	!	!	!	!	!	!	!	!	!	!	!
!	!	!LO:TX:b:i:t=Stoccato	!	!	!	!	!	!	!	!	!	!	!	!	!	!	!	!	!	!	!	!	!	!	!
8B\	.	8a\	.	8f#'/	.	8dd#X\	.	.	.	8a\	-bą	8ff#\	-bą	.	.	.	.	8B\	.	.	.	.	.	.	.
!	!	!LO:TX:a:t=|:problem	!	!	!	!	!	!	!	!	!	!	!	!	!	!	!	!	!	!	!	!	!	!LO:TX:t=P:problem:klamra łukowa	!
8B\	.	8a\	.	8f#'/	.	8dd#X\	.	.	.	8r	.	16r	.	.	.	.	.	8B\	.	.	.	8f#/L	.	24dd#X\LL	.
.	.	.	.	.	.	.	.	.	.	.	.	.	.	.	.	.	.	.	.	.	.	.	.	24ee\	.
.	.	.	.	.	.	.	.	.	.	.	.	16ff#\LL	O-	.	.	.	.	.	.	.	.	.	.	.	.
.	.	.	.	.	.	.	.	.	.	.	.	.	.	.	.	.	.	.	.	.	.	.	.	24dd#\J	.
!	!	!LO:TX:a:t=|:problem	!	!	!	!	!	!	!	!LO:TX:t=P:problem:klamra łukowa	!	!	!	!	!	!	!	!	!	!	!	!	!	!	!
8B\J	.	8a\J	.	8f#'/J	.	8dd#X\J	.	.	.	24a\LL	o-	16gg#\	.	.	.	.	.	8B\J	.	.	.	8a/J	.	8ff#\J	.
.	.	.	.	.	.	.	.	.	.	24b\	.	.	.	.	.	.	.	.	.	.	.	.	.	.	.
.	.	.	.	.	.	.	.	.	.	.	.	16ff#\JJ	.	.	.	.	.	.	.	.	.	.	.	.	.
.	.	.	.	.	.	.	.	.	.	24a\JJ	.	.	.	.	.	.	.	.	.	.	.	.	.	.	.
=44	=44	=44	=44	=44	=44	=44	=44	=44	=44	=44	=44	=44	=44	=44	=44	=44	=44	=44	=44	=44	=44	=44	=44	=44	=44
*	*	*tremolo	*	*	*	*	*	*	*	*	*	*	*	*	*	*	*	*	*	*	*	*	*	*	*
*	*	*	*	*tremolo	*	*	*	*	*	*	*	*	*	*	*	*	*	*	*	*	*	*	*	*	*
!	!	!	!	!	!	!LO:TX:a:t=sic&colon;s=2.dd#	!	!	!	!	!	!	!	!	!	!	!	!	!	!	!	!	!	!	!
!	!	!	!	!	!	!LO:TX:t=P:problem:4 kropki art.	!	!	!	!	!	!	!	!	!	!	!	!	!	!	!	!	!	!	!
!	!	!LO:TX:t=P:problem:4 kreski art.	!	!LO:N:vis=2.	!	!LO:N:vis=2.	!	!	!	!	!	!	!	!	!	!	!	!	!	!	!	!	!	!LO:TX:a:t=1.	!
8B\L	.	8a\L	.	8f#/L	.	8dd\L	.	2ryy	2ryy	16f#\LL	.	16dd#X\LL	.	2r	.	2r	.	8B\L	.	2ryy	2ryy	2r	.	2r	.
.	.	.	.	.	.	.	.	.	.	16a\	.	16ff#\	.	.	.	.	.	.	.	.	.	.	.	.	.
8B\	.	8a\	.	8f#/	.	8dd\	.	.	.	16g#\	.	16ee\	.	.	.	.	.	8B\	.	.	.	.	.	.	.
.	.	.	.	.	.	.	.	.	.	16f#\JJ	.	16dd#\JJ	.	.	.	.	.	.	.	.	.	.	.	.	.
8B\	.	8a\	.	8f#/	.	8dd\	.	.	.	(16f#\LL	.	16dd#\LL	.	.	.	.	.	8B\	.	.	.	.	.	.	.
.	.	.	.	.	.	.	.	.	.	16g#\)	.	16ee\	.	.	.	.	.	.	.	.	.	.	.	.	.
8B\J	.	8a\J	.	8f#/J	.	8dd\J	.	.	.	(16g#\	.	16ee\	.	.	.	.	.	8B\J	.	.	.	.	.	.	.
.	.	.	.	.	.	.	.	.	.	16a\JJ)	.	16ff#\JJ	.	.	.	.	.	.	.	.	.	.	.	.	.
=45	=45	=45	=45	=45	=45	=45	=45	=45	=45	=45	=45	=45	=45	=45	=45	=45	=45	=45	=45	=45	=45	=45	=45	=45	=45
!	!	!	!	!	!	!LO:TX:t=P:problem:4 kropki art.	!	!	!	!	!	!	!	!	!	!	!	!	!	!	!	!	!	!	!
!	!	!LO:TX:t=P:problem:4 kropki art.	!	!LO:N:vis=2.	!	!LO:N:vis=2.	!	!	!	!	!	!	!	!	!	!	!	!	!	!	!	!	!	!	!
8B\L	.	8b\L	.	8g#/L	.	8ee\L	.	2ryy	2ryy	8g#\	-kru-	8ee\	-kru-	2r	.	2r	.	8B\L	.	2ryy	2ryy	4r	.	4r	.
8B\	.	8b\	.	8g#/	.	8ee\	.	.	.	8b\	-tnym	8gg#\	-tnym	.	.	.	.	8B\	.	.	.	.	.	.	.
!	!	!	!	!	!	!	!	!	!	!	!	!	!	!	!	!	!	!	!	!	!	!	!	!LO:TX:t=P:problem:klamra łukowa	!
8B\	.	8b\	.	8g#/	.	8ee\	.	.	.	8r	.	16r	.	.	.	.	.	8B\	.	.	.	8g#/L	.	24ff#\LL	.
.	.	.	.	.	.	.	.	.	.	.	.	.	.	.	.	.	.	.	.	.	.	.	.	24gg#\	.
.	.	.	.	.	.	.	.	.	.	.	.	16gg#\LL	za-	.	.	.	.	.	.	.	.	.	.	.	.
.	.	.	.	.	.	.	.	.	.	.	.	.	.	.	.	.	.	.	.	.	.	.	.	24ff#\J	.
!	!	!	!	!	!	!	!	!	!	!LO:TX:t=P:problem:klamra łukowa	!	!	!	!	!	!	!	!	!	!	!	!	!	!	!
8B\J	.	8b\J	.	8g#/J	.	8ee\J	.	.	.	24b\LL	ża-	16aa\	.	.	.	.	.	8B\J	.	.	.	8b/J	.	8aa\J	.
.	.	.	.	.	.	.	.	.	.	24cc#\	.	.	.	.	.	.	.	.	.	.	.	.	.	.	.
.	.	.	.	.	.	.	.	.	.	.	.	16gg#\JJ	.	.	.	.	.	.	.	.	.	.	.	.	.
.	.	.	.	.	.	.	.	.	.	24b\JJ	.	.	.	.	.	.	.	.	.	.	.	.	.	.	.
=46	=46	=46	=46	=46	=46	=46	=46	=46	=46	=46	=46	=46	=46	=46	=46	=46	=46	=46	=46	=46	=46	=46	=46	=46	=46
!	!	!	!	!	!	!LO:TX:t=P:problem:4 kropki art.	!	!	!	!	!	!	!	!	!	!	!	!	!	!	!	!	!	!	!
!	!	!LO:TX:t=P:problem:4 kropki art.	!	!LO:N:vis=2.	!	!LO:N:vis=2.	!	!	!	!	!	!	!	!	!	!	!	!	!	!	!	!	!	!LO:TX:t=P:problem:brak 2 taktów	!
8B\L	.	8b\L	.	8a/L	.	8ee\L	.	2ryy	2ryy	16g#\LL	.	16ee\LL	.	2r	.	2r	.	8B\L	.	2ryy	2ryy	2r	.	2ryy	.
.	.	.	.	.	.	.	.	.	.	16b\	.	16gg#\	.	.	.	.	.	.	.	.	.	.	.	.	.
8B\	.	8b\	.	8a/	.	8ee\	.	.	.	16a\	.	16ff#\	.	.	.	.	.	8B\	.	.	.	.	.	.	.
.	.	.	.	.	.	.	.	.	.	16g#\JJ	.	16ee#X\JJ	.	.	.	.	.	.	.	.	.	.	.	.	.
8B\	.	8b\	.	8a/	.	8ee\	.	.	.	16g#\LL	.	(16ee#\LL	.	.	.	.	.	8B\	.	.	.	.	.	.	.
.	.	.	.	.	.	.	.	.	.	16a\	.	16ff#\)	.	.	.	.	.	.	.	.	.	.	.	.	.
8B\J	.	8b\J	.	8a/J	.	8ee\J	.	.	.	16a\	.	(16ff#\	.	.	.	.	.	8B\J	.	.	.	.	.	.	.
.	.	.	.	.	.	.	.	.	.	16b\JJ	.	16gg#\JJ)	.	.	.	.	.	.	.	.	.	.	.	.	.
=47	=47	=47	=47	=47	=47	=47	=47	=47	=47	=47	=47	=47	=47	=47	=47	=47	=47	=47	=47	=47	=47	=47	=47	=47	=47
!	!	!	!	!	!	!LO:TX:t=P:problem:4 kropki art.	!	!	!	!	!	!	!	!	!	!	!	!	!	!	!	!	!	!	!
!	!	!LO:TX:t=P:problem:4 kropki art.	!	!LO:N:vis=2.	!	!LO:N:vis=2.	!	!	!	!	!	!	!	!	!	!	!	!	!	!	!	!	!	!	!
8B\L	.	8b\L	.	8dd#X\L	.	8ff#\L	.	2ryy	2ryy	8a\	.	8ff#\	.	2r	.	2r	.	8B\L	.	2ryy	2ryy	4r	.	2ryy	.
8B\	.	8b\	.	8dd#X\	.	8ff#\	.	.	.	8f#\	-lem	8aa\	-lem	.	.	.	.	8B\	.	.	.	.	.	.	.
8B\	.	8b\	.	8dd#X\	.	8ff#\	.	.	.	8r	.	16r	.	.	.	.	.	8B\	.	.	.	24dd#X\LL	.	.	.
.	.	.	.	.	.	.	.	.	.	.	.	.	.	.	.	.	.	.	.	.	.	24ee\	.	.	.
.	.	.	.	.	.	.	.	.	.	.	.	16aa\LL	Two-	.	.	.	.	.	.	.	.	.	.	.	.
.	.	.	.	.	.	.	.	.	.	.	.	.	.	.	.	.	.	.	.	.	.	24dd#\J	.	.	.
!	!	!	!	!	!	!	!	!	!	!LO:TX:t=P:problem:klamra łukowa	!	!	!	!	!	!	!	!	!	!	!	!LO:TX:a:t=|:problem	!	!	!
8B\J	.	8b\J	.	8dd#X\J	.	8ff#\J	.	.	.	24f#\LL	Two-	16bb\	.	.	.	.	.	8B\J	.	.	.	8ff#\J	.	.	.
.	.	.	.	.	.	.	.	.	.	24g#\	.	.	.	.	.	.	.	.	.	.	.	.	.	.	.
.	.	.	.	.	.	.	.	.	.	.	.	16aa\JJ	.	.	.	.	.	.	.	.	.	.	.	.	.
.	.	.	.	.	.	.	.	.	.	24f#\JJ	.	.	.	.	.	.	.	.	.	.	.	.	.	.	.
=48	=48	=48	=48	=48	=48	=48	=48	=48	=48	=48	=48	=48	=48	=48	=48	=48	=48	=48	=48	=48	=48	=48	=48	=48	=48
!LO:TX:t=P:problem:mixed beam	!	!	!	!LO:TX:a:t=sic&colon;s=8dd#	!	!LO:TX:t=P:problem:znaki [cc# gg# ff#]	!	!	!	!	!	!	!	!	!	!	!	!LO:TX:t=P:problem:mixed beam	!	!	!	!	!	!	!
8B\L	.	8b\L	.	8dd\L	.	8ff#'\L	.	2ryy	2ryy	16d#X\LL	.	16ff#\LL	.	2r	.	2r	.	8B\L	.	2ryy	2ryy	4r	.	4r	.
.	.	.	.	.	.	.	.	.	.	16f#\JJ	.	16aa\JJ	.	.	.	.	.	.	.	.	.	.	.	.	.
8BB\	.	8b\	.	8ff#\J	.	8aa'\J	.	.	.	16e\LL	.	16gg#\LL	.	.	.	.	.	8BB\	.	.	.	.	.	.	.
.	.	.	.	.	.	.	.	.	.	16d#\JJ	.	16ff#\JJ	.	.	.	.	.	.	.	.	.	.	.	.	.
8E\J	.	8e\J	.	8ee\	.	8gg#\	.	.	.	16r	.	16r	.	.	.	.	.	8E\J	.	.	.	16r	.	16r	.
.	.	.	.	.	.	.	.	.	.	16ee\	.	16gg#\LL	.	.	.	.	.	.	.	.	.	16gg#\LL	p	16ee\LL	p
8r	.	8r	.	8r	.	8r	.	.	.	16dd#X\LL	.	16ff#\	.	.	.	.	.	8r	.	.	.	16ff#\	.	16dd#X\	.
.	.	.	.	.	.	.	.	.	.	16cc#\JJ	.	16ee\JJ	.	.	.	.	.	.	.	.	.	16ee\JJ	.	16cc#\JJ	.
=49	=49	=49	=49	=49	=49	=49	=49	=49	=49	=49	=49	=49	=49	=49	=49	=49	=49	=49	=49	=49	=49	=49	=49	=49	=49
2r	.	8a\	.	8cc#\	.	8ee\	.	2ryy	2ryy	16r	.	16r	.	2r	.	2r	.	2r	.	2ryy	2ryy	16r	.	16r	.
.	.	.	.	.	.	.	.	.	.	16cc#\LL	.	16ee\LL	.	.	.	.	.	.	.	.	.	16cc#\LL	.	16ee\LL	.
!	!	!	!	!	!	!	!	!	!	!	!	!LO:TX:a:t=sic&colon;s=16dd#	!	!	!	!	!	!	!	!	!	!	!	!	!
.	.	8r	.	8r	.	8r	.	.	.	16b\	.	16dd\	.	.	.	.	.	.	.	.	.	16b\	.	16dd#X\	.
.	.	.	.	.	.	.	.	.	.	16a\JJ	.	16cc#\JJ	.	.	.	.	.	.	.	.	.	16a\JJ	.	16cc#\JJ	.
.	.	8f#\	.	8a/	.	8cc#\	.	.	.	16r	.	16r	.	.	.	.	.	.	.	.	.	16r	.	16r	.
.	.	.	.	.	.	.	.	.	.	16a\LL	.	16cc#\LL	.	.	.	.	.	.	.	.	.	16a/LL	.	16cc#\LL	.
.	.	8r	.	8r	.	8r	.	.	.	16g#\	.	(16b\	.	.	.	.	.	.	.	.	.	16g#/	.	16b\	.
.	.	.	.	.	.	.	.	.	.	16f#\JJ	.	16a\JJ)	.	.	.	.	.	.	.	.	.	16f#/JJ	.	16a\JJ	.
=50	=50	=50	=50	=50	=50	=50	=50	=50	=50	=50	=50	=50	=50	=50	=50	=50	=50	=50	=50	=50	=50	=50	=50	=50	=50
4r	.	8d#X\	.	8f#/	.	8a/	.	2ryy	2ryy	16r	.	16r	.	2r	.	2r	.	4r	.	2ryy	2ryy	16r	.	16r	.
!	!	!	!	!	!	!	!	!	!	!LO:TX:a:t=|:problem	!	!	!	!	!	!	!	!	!	!	!	!	!	!	!
.	.	.	.	.	.	.	.	.	.	16f#\LL	.	16a/LL	.	.	.	.	.	.	.	.	.	16f#/LL	.	16a/LL	.
.	.	8r	.	8r	.	8r	.	.	.	(16e\	.	16g#/	.	.	.	.	.	.	.	.	.	16e/	.	16g#/	.
.	.	.	.	.	.	.	.	.	.	16d#X\J)	.	16f#/JJ	.	.	.	.	.	.	.	.	.	16d#X/JJ	.	16f#/JJ	.
8r	.	8B/L	.	(8d#X/L	.	8f#/L	.	.	.	8d#\J	.	8f#/	.	.	.	.	.	8r	.	.	.	8d#X/	.	8f#/	.
!	!	!	!	!	!	!	!	!	!	!	!	!	!	!	!	!	!	!LO:TX:b:t=|:problem	!	!	!	!	!	!	!
8BB/	.	8B/J	.	16e/L	.	(16g#/L	.	.	.	16e\LL	.	16g#\LL	.	.	.	.	.	8BB/	.	.	.	8r	.	8r	.
.	.	.	.	16f#/JJ)	.	16a/JJ)	.	.	.	16f#\JJ	.	16a\JJ	.	.	.	.	.	.	.	.	.	.	.	.	.
=51	=51	=51	=51	=51	=51	=51	=51	=51	=51	=51	=51	=51	=51	=51	=51	=51	=51	=51	=51	=51	=51	=51	=51	=51	=51
*	*	*	*	*^	*	*	*	*	*	*	*	*	*	*	*	*	*	*	*	*	*	*	*	*	*
*	*	*	*	*	*	*	*	*	*	*	*	*	*	*	*tremolo	*	*	*	*	*	*	*	*	*	*	*
*	*	*	*	*	*	*	*	*	*	*	*	*	*	*	*	*	*tremolo	*	*	*	*	*	*	*	*	*
!	!	!	!	!	!	!	!	!	!	!	!	!	!	!	!LO:TX:t=P:problem:2\right:global	!	!LO:TX:t=P:problem:2\right:global	!	!LO:TX:a:t=|:problem	!	!	!	!LO:TX:a:t=3	!	!LO:TX:a:t=3	!
8E'\L	.	8e\L	.	8g#/L	8ryy	.	8b'\L	.	2ryy	2ryy	(16g#\LL	.	16b\LL	.	8b\L	p	8b\L	p	8E\L	.	2ryy	2ryy	2r	.	2r	.
.	.	.	.	.	.	.	.	.	.	.	16e\JJ)	.	16g#\JJ	.	.	.	.	.	.	.	.	.	.	.	.	.
!	!	!	!	!	!	!	!	!	!	!	!	!	!	!	!	!	!	!	!LO:TX:a:t=|:problem	!	!	!	!	!	!	!
8B'\	.	8d#X\	.	8a/	8f#\	.	8b'\	.	.	.	(16f#\LL	.	16a\LL	.	8b\	.	8b\	.	8B\	.	.	.	.	.	.	.
.	.	.	.	.	.	.	.	.	.	.	16d#X\JJ)	.	16f#\JJ	.	.	.	.	.	.	.	.	.	.	.	.	.
!	!	!	!	!	!	!	!	!	!	!	!	!	!	!	!	!	!	!	!LO:TX:a:t=|:problem	!	!	!	!	!	!	!
8E'\	.	8e\	.	8g#/	8ryy	.	8b'\	.	.	.	16g#\LL	.	16b\LL	.	8b\	.	8b\	.	8E\	.	.	.	.	.	.	.
.	.	.	.	.	.	.	.	.	.	.	16e\	.	16g#\JJ	.	.	.	.	.	.	.	.	.	.	.	.	.
!	!	!	!	!	!	!	!	!	!	!	!	!	!	!	!	!	!	!	!LO:TX:a:t=|:problem	!	!	!	!	!	!	!
8BB'\J	.	8d#\J	.	8a/J	8f#\	.	8b'\J	.	.	.	16f#\	.	16a\LL	.	8b\J	.	8b\J	.	8BB\J	.	.	.	.	.	.	.
.	.	.	.	.	.	.	.	.	.	.	16d#X\JJ	.	16f#\JJ	.	.	.	.	.	.	.	.	.	.	.	.	.
*	*	*	*	*	*	*	*	*	*	*	*	*	*	*	*	*	*Xtremolo	*	*	*	*	*	*	*	*	*
*	*	*	*	*	*	*	*	*	*	*	*	*	*	*	*Xtremolo	*	*	*	*	*	*	*	*	*	*	*
*	*	*	*	*v	*v	*	*	*	*	*	*	*	*	*	*	*	*	*	*	*	*	*	*	*	*	*
=52	=52	=52	=52	=52	=52	=52	=52	=52	=52	=52	=52	=52	=52	=52	=52	=52	=52	=52	=52	=52	=52	=52	=52	=52	=52
!LO:TX:t=P:problem:mixed beam	!	!	!	!	!	!	!	!	!	!	!	!	!	!	!	!	!	!	!	!	!	!	!	!	!
8E\L	.	8e\L	.	8g#'/L	.	(16b\LL	.	2ryy	2ryy	16e\LL	.	16g#\LL	.	8b\L	.	8b\L	.	8E\L	.	2ryy	2ryy	2r	.	2r	.
.	.	.	.	.	.	16ee\JJ)	.	.	.	16g#\JJ	.	16ee\JJ	.	.	.	.	.	.	.	.	.	.	.	.	.
!	!	!	!	!LO:TX:t=P:problem:klamra łukowa	!	!	!	!	!	!LO:TX:t=P:problem:brak numeru	!	!	!	!	!	!	!	!	!	!	!	!	!	!	!
8A\	.	8a\	.	24a/L	.	32dd#X\LLL	.	.	.	24a\LL	.	(32dd#X\LLL	.	8a\	.	8cc#\	.	8A\	.	.	.	.	.	.	.
.	.	.	.	.	.	(32cc#\	.	.	.	.	.	32cc#\	.	.	.	.	.	.	.	.	.	.	.	.	.
.	.	.	.	24g#/	.	.	.	.	.	24g#\	.	.	.	.	.	.	.	.	.	.	.	.	.	.	.
.	.	.	.	.	.	32b\	.	.	.	.	.	32b\	.	.	.	.	.	.	.	.	.	.	.	.	.
.	.	.	.	24f#/JJ	.	.	.	.	.	24f#\JJ	.	.	.	.	.	.	.	.	.	.	.	.	.	.	.
.	.	.	.	.	.	32a\JJJ)	.	.	.	.	.	32a\JJJ)	.	.	.	.	.	.	.	.	.	.	.	.	.
8B\	.	8b\	.	8e/L	.	8g#/L	.	.	.	8e\	.	8g#\	.	8b\	.	8b\	.	8B\	.	.	.	.	.	.	.
8BB\J	.	8b\J	.	8d#X/J	.	8f#/J	.	.	.	8d#X\	.	8f#/	.	8b\J	.	8b\J	.	8B\J	.	.	.	.	.	.	.
=53	=53	=53	=53	=53	=53	=53	=53	=53	=53	=53	=53	=53	=53	=53	=53	=53	=53	=53	=53	=53	=53	=53	=53	=53	=53
!	!	!	!	!	!	!	!	!	!	!LO:TX:a:t=sic&colon;s=4d#	!	!	!	!	!	!	!	!	!	!	!	!	!	!	!
[4E\	.	4b\	.	4A/	.	4f#/	.	2ryy	2ryy	4d\	.	4f#/	.	4e/	.	4b\	.	4E\	.	2ryy	2ryy	2r	.	2r	.
8E\]	.	8b\	.	8G#/	.	8e/	.	.	.	8B/	-im	8e/	-im	8e/	.	8b\	.	8E\	.	.	.	.	.	.	.
8r	.	8r	.	8r	.	16r	.	.	.	8r	.	8r	.	8r	.	8r	.	8r	.	.	.	.	.	.	.
.	.	.	.	.	.	16b\	.	.	.	.	.	.	.	.	.	.	.	.	.	.	.	.	.	.	.
=54	=54	=54	=54	=54	=54	=54	=54	=54	=54	=54	=54	=54	=54	=54	=54	=54	=54	=54	=54	=54	=54	=54	=54	=54	=54
!	!	!	!	!	!	!	!	!	!	!	!	!	!	!	!	!	!	!	!	!	!	!	!	!LO:TX:t=P:problem:2\right:global	!
!	!	!	!	!	!	!	!LO:DY:a	!	!	!LO:TX:a:t=13	!	!LO:TX:a:t=25	!	!	!	!	!	!	!	!	!	!LO:TX:t=P:problem:2\right:global	!	!LO:TX:t=P:problem:linia falista do t. 56	!
8r	.	8r	.	16ff#\LL	p	16aa\LL	p	2ryy	2ryy	2r	.	2r	.	8r	.	8r	.	8r	.	2ryy	2ryy	2b\	p	2bbT\	p
.	.	.	.	16ee\	.	(16gg#\	.	.	.	.	.	.	.	.	.	.	.	.	.	.	.	.	.	.	.
!LO:TX:t=P:problem:mixed beam	!	!	!	!	!	!	!	!	!	!	!	!	!	!	!	!	!	!LO:TX:t=P:problem:mixed beam	!	!	!	!	!	!	!
8BB'\L	.	8f#\L	.	16dd#X\	.	16ff#\)	.	.	.	.	.	.	.	8b\L	.	8b\L	.	8BB/L	.	.	.	.	.	.	.
.	.	.	.	16cc#\JJ	.	16ee\JJ	.	.	.	.	.	.	.	.	.	.	.	.	.	.	.	.	.	.	.
(8B\	.	8f#\	p	16b'\LL	.	16dd#X'\LL	.	.	.	.	.	.	.	8b\	.	8b\	.	8B/	.	.	.	.	.	.	.
.	.	.	.	16b'\	.	16dd#'\J	.	.	.	.	.	.	.	.	.	.	.	.	.	.	.	.	.	.	.
8A\J)	.	8f#\J	.	(16b\	.	8dd#'\J	.	.	.	.	.	.	.	8b\J	.	8b\J	.	8A/J	.	.	.	.	.	.	.
.	.	.	.	16a\JJ)	.	.	.	.	.	.	.	.	.	.	.	.	.	.	.	.	.	.	.	.	.
=55	=55	=55	=55	=55	=55	=55	=55	=55	=55	=55	=55	=55	=55	=55	=55	=55	=55	=55	=55	=55	=55	=55	=55	=55	=55
!LO:TX:t=P:problem:mixed beam	!	!	!	!	!	!	!	!	!	!	!	!	!	!	!	!	!	!LO:TX:t=P:problem:mixed beam	!	!	!	!	!	!	!
8G#\L	.	8r	.	16g#\LL	.	(16ee\LL	.	2ryy	2ryy	2r	.	2r	.	8r	.	8r	.	8G#\L	.	2ryy	2ryy	2b\	.	2bb\	.
.	.	.	.	16dd#X\	.	16ff#\	.	.	.	.	.	.	.	.	.	.	.	.	.	.	.	.	.	.	.
8E\	.	8b\L	.	16ee\	.	16gg#\)	.	.	.	.	.	.	.	8b\L	.	8b\L	.	8E\	.	.	.	.	.	.	.
.	.	.	.	16ff#\JJ	.	16aa\JJ	.	.	.	.	.	.	.	.	.	.	.	.	.	.	.	.	.	.	.
8B\	.	8b\	.	16dd#'\LL	.	16ff#'\LL	.	.	.	.	.	.	.	8b\	.	8b\	.	8B\	.	.	.	.	.	.	.
.	.	.	.	16dd#'\	.	16ff#'\J	.	.	.	.	.	.	.	.	.	.	.	.	.	.	.	.	.	.	.
8BB\J	.	8b\J	.	(16dd#\	.	8ff#'\J	.	.	.	.	.	.	.	8b\J	.	8b\J	.	8BB\J	.	.	.	.	.	.	.
.	.	.	.	16ee\JJ)	.	.	.	.	.	.	.	.	.	.	.	.	.	.	.	.	.	.	.	.	.
=56	=56	=56	=56	=56	=56	=56	=56	=56	=56	=56	=56	=56	=56	=56	=56	=56	=56	=56	=56	=56	=56	=56	=56	=56	=56
!	!	!	!	!	!	!	!	!	!	!	!	!	!	!	!	!LO:TX:t=P:problem:takt 56 - repetycja	!	!	!	!	!	!	!	!	!
8r	.	8r	.	16ff#\LL	.	16aa\LL	.	2ryy	2ryy	2r	.	2r	.	8r	.	8ryy	.	8r	.	2ryy	2ryy	2b\	.	2bb\	.
.	.	.	.	16ee\	.	(16gg#\	.	.	.	.	.	.	.	.	.	.	.	.	.	.	.	.	.	.	.
!LO:TX:t=P:problem:mixed beam	!	!	!	!LO:TX:a:t=sic&colon;s=16dd#	!	!	!	!	!	!	!	!	!	!	!	!	!	!LO:TX:t=P:problem:mixed beam	!	!	!	!	!	!	!
8BB/L	.	8f#\L	.	16dd\	.	16ff#\	.	.	.	.	.	.	.	8b\L	.	8b\Lyy	.	8BB/L	.	.	.	.	.	.	.
.	.	.	.	16cc#\JJ	.	16ee\JJ)	.	.	.	.	.	.	.	.	.	.	.	.	.	.	.	.	.	.	.
8B/	.	8f#\	.	16b\LL	.	16dd#X'\LL	.	.	.	.	.	.	.	8b\	.	8b\yy	.	8B/	.	.	.	.	.	.	.
.	.	.	.	16b\	.	16dd#'\J	.	.	.	.	.	.	.	.	.	.	.	.	.	.	.	.	.	.	.
8A/J	.	8f#\J	.	16b\	.	8dd#'\J	.	.	.	.	.	.	.	8b\J	.	8b\Jyy	.	8A/J	.	.	.	.	.	.	.
!	!	!	!	!LO:TX:a:t=a	!	!	!	!	!	!	!	!	!	!	!	!	!	!	!	!	!	!	!	!	!
.	.	.	.	16a\JJ	.	.	.	.	.	.	.	.	.	.	.	.	.	.	.	.	.	.	.	.	.
=57	=57	=57	=57	=57	=57	=57	=57	=57	=57	=57	=57	=57	=57	=57	=57	=57	=57	=57	=57	=57	=57	=57	=57	=57	=57
!LO:TX:t=P:problem:mixed beam	!	!	!	!	!	!	!	!	!	!	!	!	!	!	!	!	!	!LO:TX:t=P:problem:mixed beam	!	!	!	!	!	!	!
8B\L	.	8e\	.	16g#/LL	.	(16b\LL	.	2ryy	2ryy	2r	.	2r	.	8e/	.	8b\	.	8B\L	.	2ryy	2ryy	8b\L	.	8bb\L	.
.	.	.	.	16b/	.	16ee\	.	.	.	.	.	.	.	.	.	.	.	.	.	.	.	.	.	.	.
8BB\	.	4f#\	.	(16a/	.	16gg#\)	.	.	.	.	.	.	.	4b\	.	4b\	.	8BB\	.	.	.	8b\J	.	8bb\J	.
.	.	.	.	16cc#/JJ)	.	16ff#\JJ	.	.	.	.	.	.	.	.	.	.	.	.	.	.	.	.	.	.	.
!	!	!	!	!	!	!LO:TX:t=P:problem:mixed beam	!	!	!	!	!	!	!	!	!	!	!	!	!	!	!	!	!	!	!
8E\J	.	.	.	16a/LL	.	8ff#\L	.	.	.	.	.	.	.	.	.	.	.	8E\J	.	.	.	4b\	.	4bb\	.
.	.	.	.	16b/	.	.	.	.	.	.	.	.	.	.	.	.	.	.	.	.	.	.	.	.	.
8r	.	8e\	.	16g#/	.	(16ee\L	.	.	.	.	.	.	.	8e/	.	8b\	.	8r	.	.	.	.	.	.	.
.	.	.	.	16b/JJ	.	16B\JJ)	.	.	.	.	.	.	.	.	.	.	.	.	.	.	.	.	.	.	.
=58	=58	=58	=58	=58	=58	=58	=58	=58	=58	=58	=58	=58	=58	=58	=58	=58	=58	=58	=58	=58	=58	=58	=58	=58	=58
!	!	!	!	!	!	!	!	!	!	!	!	!	!	!	!	!	!	!	!	!	!	!LO:TX:b:t=Dolce	!	!LO:TX:b:t=Dolce	!
8r	.	8r	.	16f#/LL	.	16a/LL	.	2ryy	2ryy	2r	.	2r	.	2b\	.	2b\	f	8r	.	2ryy	2ryy	(16ff#\LL	.	(16aa\LL	.
.	.	.	.	16e/	.	16g#/	.	.	.	.	.	.	.	.	.	.	.	.	.	.	.	16ee\	.	16gg#\	.
!LO:TX:t=P:problem:mixed beam	!	!	!	!	!	!	!	!	!	!	!	!	!	!	!	!	!	!LO:TX:t=P:problem:mixed beam	!	!	!	!	!	!	!
8BB/L	.	8f#\L	.	16d#X/	.	(16f#/	.	.	.	.	.	.	.	.	.	.	.	8BB/L	.	.	.	16dd#X\)	.	16ff#\	.
.	.	.	.	16c#/JJ	.	16e/JJ)	.	.	.	.	.	.	.	.	.	.	.	.	.	.	.	16cc#\JJ	.	16ee\JJ)	.
8B/	.	8f#\	.	16B/LL	.	16d#X'/LL	.	.	.	.	.	.	.	.	.	.	.	8B/	.	.	.	16b'\LL	.	16dd#X'\LL	.
.	.	.	.	16B/	.	16d#'/J	.	.	.	.	.	.	.	.	.	.	.	.	.	.	.	16b'\	.	16dd#'\J	.
8A/J	.	8f#\J	.	16B/	.	8d#'/J	.	.	.	.	.	.	.	.	.	.	.	8A/J	.	.	.	(16b\	.	8dd#'\J	.
.	.	.	.	16A/JJ	.	.	.	.	.	.	.	.	.	.	.	.	.	.	.	.	.	16a\JJ)	.	.	.
=59	=59	=59	=59	=59	=59	=59	=59	=59	=59	=59	=59	=59	=59	=59	=59	=59	=59	=59	=59	=59	=59	=59	=59	=59	=59
!LO:TX:t=P:problem:mixed beam	!	!	!	!	!	!	!	!	!	!	!	!	!	!	!	!	!	!LO:TX:t=P:problem:mixed beam	!	!	!	!	!	!	!
8G#\L	.	8r	.	16G#/LL	.	16e/LL	.	2ryy	2ryy	2r	.	2r	.	2b\	.	2b\	.	8G#\L	.	2ryy	2ryy	(16g#\LL	.	(16ee\LL	.
.	.	.	.	16d#X/	.	(16f#/	.	.	.	.	.	.	.	.	.	.	.	.	.	.	.	16dd#X\	.	16ff#\	.
8E\	.	8b\L	.	16e/	.	16g#/)	.	.	.	.	.	.	.	.	.	.	.	8E\	.	.	.	16ee\	.	16gg#\	.
.	.	.	.	16f#/JJ	.	16a/JJ	.	.	.	.	.	.	.	.	.	.	.	.	.	.	.	16ff#\JJ)	.	16aa\JJ)	.
!	!	!	!	!	!	!	!	!	!	!	!	!	!	!	!	!	!	!	!	!	!	!	!	!LO:TX:a:t=|:problem	!
8B\	.	8b\	.	16d#/LL	.	16f#'/LL	.	.	.	.	.	.	.	.	.	.	.	8B\	.	.	.	16dd#'\LL	.	16ff#\LL	.
!	!	!	!	!	!	!	!	!	!	!	!	!	!	!	!	!	!	!	!	!	!	!	!	!LO:TX:a:t=|:problem	!
.	.	.	.	16d#/	.	16f#'/J	.	.	.	.	.	.	.	.	.	.	.	.	.	.	.	16dd#'\	.	16ff#\J	.
!	!	!	!	!	!	!	!	!	!	!	!	!	!	!	!	!	!	!	!	!	!	!	!	!LO:TX:a:t=|:problem	!
8BB\J	.	8b\J	.	16d#/	.	8f#'/J	.	.	.	.	.	.	.	.	.	.	.	8BB\J	.	.	.	(16dd#\	.	8ff#\J	.
.	.	.	.	16e/JJ	.	.	.	.	.	.	.	.	.	.	.	.	.	.	.	.	.	16ee\JJ)	.	.	.
=60	=60	=60	=60	=60	=60	=60	=60	=60	=60	=60	=60	=60	=60	=60	=60	=60	=60	=60	=60	=60	=60	=60	=60	=60	=60
8r	.	8r	.	16f#/LL	.	(16a/LL	.	2ryy	2ryy	2r	.	2r	.	2b\	.	2b\	.	8r	.	2ryy	2ryy	16ff#\LL	.	(16aa\LL	.
.	.	.	.	16e/	.	16g#/	.	.	.	.	.	.	.	.	.	.	.	.	.	.	.	16ee\	.	16gg#\	.
!LO:TX:t=P:problem:mixed beam	!	!	!	!LO:TX:a:t=sic&colon;s=16d#	!	!	!	!	!	!	!	!	!	!	!	!	!	!LO:TX:t=P:problem:mixed beam	!	!	!	!	!	!	!
8BB/L	.	8f#\L	.	16d/	.	16f#/)	.	.	.	.	.	.	.	.	.	.	.	8BB/L	.	.	.	16dd#X\	.	16ff#\	.
.	.	.	.	16c#/JJ	.	16e/JJ	.	.	.	.	.	.	.	.	.	.	.	.	.	.	.	16cc#\JJ	.	16ee\JJ)	.
!	!	!	!	!	!	!	!	!	!	!	!	!	!	!	!	!	!	!	!	!	!	!	!	!LO:TX:a:t=|:problem	!
8B/	.	8f#\	.	16B/LL	.	16d#X'/LL	.	.	.	.	.	.	.	.	.	.	.	8B/	.	.	.	16b'\LL	.	16dd#X\LL	.
!	!	!	!	!	!	!	!	!	!	!	!	!	!	!	!	!	!	!	!	!	!	!	!	!LO:TX:a:t=|:problem	!
.	.	.	.	16B/J	.	16d#'/J	.	.	.	.	.	.	.	.	.	.	.	.	.	.	.	16b'\	.	16dd#\J	.
!	!	!	!	!	!	!	!	!	!	!	!	!	!	!	!	!	!	!	!	!	!	!	!	!LO:TX:a:t=|:problem	!
8A/J	.	8f#\J	.	8A/J	.	8d#'/J	.	.	.	.	.	.	.	.	.	.	.	8A/J	.	.	.	(16b\	.	8dd#\J	.
.	.	.	.	.	.	.	.	.	.	.	.	.	.	.	.	.	.	.	.	.	.	16a\JJ)	.	.	.
=61	=61	=61	=61	=61	=61	=61	=61	=61	=61	=61	=61	=61	=61	=61	=61	=61	=61	=61	=61	=61	=61	=61	=61	=61	=61
!LO:TX:t=P:problem:mixed beam	!	!	!	!	!	!LO:TX:t=P:problem:mixed beam	!	!	!	!	!	!	!	!	!	!	!	!LO:TX:t=P:problem:mixed beam	!	!	!	!LO:TX:t=P:problem:mixed beam	!	!	!
8G#\L	.	8b\L	.	16g#/LL	.	(16e\LL	.	2ryy	2ryy	2r	.	2r	.	8e\L	.	8b\L	.	8G#\L	.	2ryy	2ryy	16g#\LL	.	8ee\L	.
.	.	.	.	16a/J	.	16ee\	.	.	.	.	.	.	.	.	.	.	.	.	.	.	.	16gg#\	.	.	.
8A\	.	8cc#\	.	8f#/J	.	16cc#\	.	.	.	.	.	.	.	8a\	.	8cc#\	.	8A\	.	.	.	16aa\	.	16ccc#\L	.
.	.	.	.	.	.	16a\JJ)	.	.	.	.	.	.	.	.	.	.	.	.	.	.	.	16ff#\JJ	.	16aa\JJ	.
8B\	.	8b\	.	8e/L	.	8g#/L	.	.	.	.	.	.	.	8b\	.	8b\	.	8B\	.	.	.	8ee\L	.	8gg#\L	.
!	!	!	!	!	!	!	!	!	!	!	!	!	!	!	!	!	!	!	!	!	!	!LO:TX:a:t=sic&colon;s=8dd#	!	!	!
8BB\J	.	8b\J	.	8d#X/J	.	8f#/J	.	.	.	.	.	.	.	8b\J	.	8b\J	.	8BB\J	.	.	.	8dd\J	.	8ff#\J	.
=62	=62	=62	=62	=62	=62	=62	=62	=62	=62	=62	=62	=62	=62	=62	=62	=62	=62	=62	=62	=62	=62	=62	=62	=62	=62
!	!	!	!	!	!	!	!	!	!	!	!	!	!	!LO:TX:a:t=3	!	!LO:TX:a:t=3	!	!	!	!	!	!LO:TX:a:t=2	!	!LO:TX:a:t=2	!
8r	.	8r	.	8.cc#\L	.	8.ee\L	.	2ryy	2ryy	2r	.	2r	.	2r	.	2r	.	8r	.	2ryy	2ryy	2r	.	2r	.
8A\L	.	8cc#\L	.	.	.	.	.	.	.	.	.	.	.	.	.	.	.	8A\L	.	.	.	.	.	.	.
.	.	.	.	32b\LL	.	32dd\LL	.	.	.	.	.	.	.	.	.	.	.	.	.	.	.	.	.	.	.
.	.	.	.	32a\JJJ	.	32cc#\JJJ	.	.	.	.	.	.	.	.	.	.	.	.	.	.	.	.	.	.	.
8A\	.	8cc#\	.	8a\	.	8cc#\	.	.	.	.	.	.	.	.	.	.	.	8A\	.	.	.	.	.	.	.
8A\J	.	8cc#\J	.	8r	.	8r	.	.	.	.	.	.	.	.	.	.	.	8A\J	.	.	.	.	.	.	.
=63	=63	=63	=63	=63	=63	=63	=63	=63	=63	=63	=63	=63	=63	=63	=63	=63	=63	=63	=63	=63	=63	=63	=63	=63	=63
8r	.	8r	.	8.a/L	.	8.cc#\L	.	2ryy	2ryy	2r	.	2r	.	2r	.	2r	.	8r	.	2ryy	2ryy	2r	.	2r	.
8A\L	.	8cc#\L	.	.	.	.	.	.	.	.	.	.	.	.	.	.	.	8A\L	.	.	.	.	.	.	.
.	.	.	.	32g#/LL	.	(32b\LL	.	.	.	.	.	.	.	.	.	.	.	.	.	.	.	.	.	.	.
.	.	.	.	(32f#/JJJ	.	32a\JJJ)	.	.	.	.	.	.	.	.	.	.	.	.	.	.	.	.	.	.	.
8A\	.	8cc#\	.	8f#/)	.	8a/	.	.	.	.	.	.	.	.	.	.	.	8A\	.	.	.	.	.	.	.
8A\J	.	8cc#\J	.	8r	.	8r	.	.	.	.	.	.	.	.	.	.	.	8A\J	.	.	.	.	.	.	.
=64	=64	=64	=64	=64	=64	=64	=64	=64	=64	=64	=64	=64	=64	=64	=64	=64	=64	=64	=64	=64	=64	=64	=64	=64	=64
8r	.	8r	.	(8.f#/L	.	(8.a/L	.	2ryy	2ryy	2r	.	2r	.	2r	.	2r	.	8r	.	2ryy	2ryy	4r	f	4r	.
8BB/L	.	8f#\L	.	.	.	.	.	.	.	.	.	.	.	.	.	.	.	8BB/L	.	.	.	.	.	.	.
.	.	.	.	32e/LL)	.	32g#/LL	.	.	.	.	.	.	.	.	.	.	.	.	.	.	.	.	.	.	.
.	.	.	.	32d#X/JJJ	.	32f#/JJJ)	.	.	.	.	.	.	.	.	.	.	.	.	.	.	.	.	.	.	.
!	!	!	!	!	!	!	!	!	!	!	!	!	!	!	!	!	!	!	!	!	!	!LO:TX:a:t=sic&colon;s=8dd#	!	!	!
8BB/	.	8f#\	.	8d#/L	.	8f#/L	.	.	.	.	.	.	.	.	.	.	.	8BB/	.	.	.	8dd\L	.	8ff#\L	.
8BB/J	.	8f#\J	.	16e/L	.	(16g#/L	.	.	.	.	.	.	.	.	.	.	.	8BB/J	.	.	.	16ee\L	.	16gg#\L	.
.	.	.	.	16f#/JJ	.	16a/JJ)	.	.	.	.	.	.	.	.	.	.	.	.	.	.	.	16ff#\JJ	.	16aa\JJ	.
=65	=65	=65	=65	=65	=65	=65	=65	=65	=65	=65	=65	=65	=65	=65	=65	=65	=65	=65	=65	=65	=65	=65	=65	=65	=65
!LO:TX:t=P:problem:mixed beam	!	!	!	!	!	!	!	!	!	!	!	!	!	!	!	!	!	!LO:TX:t=P:problem:mixed beam	!	!	!	!	!	!	!
8E\L	.	8b\L	.	(8g#/L	.	16b\LL	.	2ryy	2ryy	2r	.	2r	.	8b\L	p	8b\L	.	8E\L	.	2ryy	2ryy	8gg#\L	.	16bb\LL	.
.	.	.	.	.	.	(16ee\	.	.	.	.	.	.	.	.	.	.	.	.	.	.	.	.	.	16eee\	.
8A\	.	8cc#\	.	16a/L	.	16cc#\	.	.	.	.	.	.	.	8a\	.	8cc#\	.	8A\	.	.	.	16aa\L	.	16ccc#\	.
.	.	.	.	16f#/JJ)	.	16a\JJ)	.	.	.	.	.	.	.	.	.	.	.	.	.	.	.	16ff#\JJ	.	16aa\JJ	.
8B\	.	8b\	.	8e/L	.	8g#'/L	.	.	.	.	.	.	.	8b\	.	8b\	.	8B\	.	.	.	8ee\L	.	8gg#\L	.
!	!	!	!	!	!	!	!	!	!	!	!	!	!	!	!	!	!	!	!	!	!	!LO:TX:a:t=sic&colon;s=8dd#	!	!	!
8BB\J	.	8b\J	.	8d#X/J	.	8f#'/J	.	.	.	.	.	.	.	8b\J	.	8b\J	.	8BB\J	.	.	.	8dd\J	.	8ff#\J	.
=66	=66	=66	=66	=66	=66	=66	=66	=66	=66	=66	=66	=66	=66	=66	=66	=66	=66	=66	=66	=66	=66	=66	=66	=66	=66
4E\	.	4b\	.	4A/	.	4f#/	.	2ryy	2ryy	2r	.	2r	.	4e/	.	4b\	.	4E\	.	2ryy	2ryy	4a/	.	4ff#\	.
8E\	.	8b\	.	8G#/	.	8e/	.	.	.	.	.	.	.	8e/	.	8b\	.	8E\	.	.	.	8g#/	.	8ee\	.
8r	.	8r	.	8r	.	8r	.	.	.	.	.	.	.	8r	.	8r	.	8r	.	.	.	8r	.	8r	.
=67	=67	=67	=67	=67	=67	=67	=67	=67	=67	=67	=67	=67	=67	=67	=67	=67	=67	=67	=67	=67	=67	=67	=67	=67	=67
!	!	!	!	!	!	!	!	!	!	!	!	!	!	!LO:TX:a:t=12	!	!LO:TX:a:t=12	!	!	!	!	!	!	!	!	!
4E\	.	4b\	.	4g#/	.	4b\	.	2ryy	2ryy	4b\	Twe-	2r	.	2r	.	2r	.	4E\	.	2ryy	2ryy	2r	.	2r	.
8r	.	8r	.	(32B/KLL	.	(32g#/KLL	.	.	.	(32g#\KLL	.	.	.	.	.	.	.	8r	.	.	.	.	.	.	.
.	.	.	.	16.G#/JJ)	.	16.e/JJ)	.	.	.	16.e\JJ)	.	.	.	.	.	.	.	.	.	.	.	.	.	.	.
8A\	.	8b\	.	32c#/KLL	.	(32a/KLL	.	.	.	(32a\KLL	.	.	.	.	.	.	.	8A\	.	.	.	.	.	.	.
.	.	.	.	16.A/JJ	.	16.f#/JJ)	.	.	.	16.f#\JJ)	.	.	.	.	.	.	.	.	.	.	.	.	.	.	.
=68	=68	=68	=68	=68	=68	=68	=68	=68	=68	=68	=68	=68	=68	=68	=68	=68	=68	=68	=68	=68	=68	=68	=68	=68	=68
!LO:TX:t=P:problem:mixed beam	!	!	!	!	!	!	!	!	!	!	!	!	!	!	!	!	!	!LO:TX:t=P:problem:mixed beam	!	!	!	!	!	!	!
8B\L	.	4b\	.	4A/	.	8.d#X/L	.	2ryy	2ryy	8.d#X\L	.	2r	.	2r	.	2r	.	8B\L	.	2ryy	2ryy	4r	.	4r	.
8BB\	.	.	.	.	.	.	.	.	.	.	.	.	.	.	.	.	.	8BB\J	.	.	.	.	.	.	.
.	.	.	.	.	.	(32e/LL	.	.	.	32e\LL	.	.	.	.	.	.	.	.	.	.	.	.	.	.	.
.	.	.	.	.	.	32f#/JJJ	.	.	.	32f#\JJJ	.	.	.	.	.	.	.	.	.	.	.	.	.	.	.
!	!	!LO:TX:t=P:problem:mixed beam	!	!	!	!	!	!	!	!	!	!	!	!	!	!	!	!	!	!	!	!	!	!	!
8E\J	.	8b\L	.	8G#/L	.	8e'/L)	.	.	.	8e\	-go	.	.	.	.	.	.	8E\	.	.	.	8r	.	8r	.
8r	.	8F#\J	.	8d#X/J	.	8f#'/J	.	.	.	8f#\	Sy-	.	.	.	.	.	.	8r	.	.	.	8dd#X\	pp	8ff#\	p
=69	=69	=69	=69	=69	=69	=69	=69	=69	=69	=69	=69	=69	=69	=69	=69	=69	=69	=69	=69	=69	=69	=69	=69	=69	=69
!LO:TX:t=P:problem:2 takty nadprogramowe w fg	!	!LO:TX:t=P:problem:2 takty nadprogramowe w fg	!	!LO:TX:t=P:problem:2 takty nadprogramowe w fg	!	!LO:TX:t=P:problem:2 takty nadprogramowe w fg	!	!	!	!LO:TX:t=P:problem:2 takty nadprogramowe w fg	!	!LO:TX:t=P:problem:2 takty nadprogramowe w fg	!	!LO:TX:t=P:problem:2 takty nadprogramowe w fg	!	!LO:TX:t=P:problem:2 takty nadprogramowe w fg	!	!	!	!	!	!LO:TX:t=P:problem:2 takty nadprogramowe w fg	!	!LO:TX:t=P:problem:2 takty nadprogramowe w fg	!
2ryy	.	2ryy	.	2ryy	.	2ryy	.	2ryy	2ryy	2ryy	.	2ryy	.	2ryy	.	2ryy	.	4r	.	2ryy	2ryy	2ryy	.	2ryy	.
.	.	.	.	.	.	.	.	.	.	.	.	.	.	.	.	.	.	8r	.	.	.	.	.	.	.
.	.	.	.	.	.	.	.	.	.	.	.	.	.	.	.	.	.	8A\	.	.	.	.	.	.	.
=70	=70	=70	=70	=70	=70	=70	=70	=70	=70	=70	=70	=70	=70	=70	=70	=70	=70	=70	=70	=70	=70	=70	=70	=70	=70
!	!	!	!	!	!	!	!	!	!	!	!	!	!	!	!	!	!	!LO:TX:t=P:problem:mixed beam	!	!	!	!	!	!	!
2ryy	.	2ryy	.	2ryy	.	2ryy	.	2ryy	2ryy	2ryy	.	2ryy	.	2ryy	.	2ryy	.	8B\L	.	2ryy	2ryy	2ryy	.	2ryy	.
.	.	.	.	.	.	.	.	.	.	.	.	.	.	.	.	.	.	8BB\	.	.	.	.	.	.	.
.	.	.	.	.	.	.	.	.	.	.	.	.	.	.	.	.	.	8E\J	.	.	.	.	.	.	.
.	.	.	.	.	.	.	.	.	.	.	.	.	.	.	.	.	.	8r	.	.	.	.	.	.	.
=71	=71	=71	=71	=71	=71	=71	=71	=71	=71	=71	=71	=71	=71	=71	=71	=71	=71	=71	=71	=71	=71	=71	=71	=71	=71
4r	.	8G#/L	.	8e/L	.	8g#'/L	.	2ryy	2ryy	8g#\	-na	2r	.	2r	.	2r	.	4r	.	2ryy	2ryy	(8ee\L	.	(8gg#\L	.
.	.	8A/	.	8f#/J	.	8a'/J	.	.	.	8a\L	zra-	.	.	.	.	.	.	.	.	.	.	8ff#\	.	8aa\J	.
8r	.	8B/	.	8g#/L	.	(8b/L	.	.	.	8b\J	.	.	.	.	.	.	.	8r	.	.	.	8gg#\	.	8bb\L	.
8A\	.	16c#/L	.	16a/L	.	16cc#/L	.	.	.	16cc#\LL	-nio-	.	.	.	.	.	.	8A\	.	.	.	16aa\L	.	16ccc#\L	.
.	.	16A/JJ	.	16f#/JJ	.	16a/JJ)	.	.	.	16a\JJ	.	.	.	.	.	.	.	.	.	.	.	16ff#\JJ)	.	16aa\JJ)	.
=72	=72	=72	=72	=72	=72	=72	=72	=72	=72	=72	=72	=72	=72	=72	=72	=72	=72	=72	=72	=72	=72	=72	=72	=72	=72
!	!	!LO:TX:t=P:problem:mixed beam	!	!	!	!	!	!	!	!	!	!	!	!	!	!	!	!	!	!	!	!	!	!	!
.	.	.	.	16qqf#/	.	.	.	.	.	8qqa/	.	.	.	.	.	.	.	.	.	.	.	.	.	16qqaa/	.
4B\	.	8B\L	.	4e/	.	8a/	.	2ryy	2ryy	4g#\	-ne-	2r	.	2r	.	2r	.	4B\	.	2ryy	2ryy	4ee\	.	4gg#\	.
.	.	8b\	.	.	.	4g#/	.	.	.	.	.	.	.	.	.	.	.	.	.	.	.	.	.	.	.
!	!	!	!	!	!	!	!	!	!	!	!	!	!	!	!	!	!	!	!	!	!	!LO:TX:a:t=sic&colon;s=8dd#	!	!	!
8BB/	.	8b\J	.	8d#X/	.	.	.	.	.	8f#\	-go	.	.	.	.	.	.	8BB/	.	.	.	8dd\	.	8ff#\	.
8r	.	8r	.	8r	.	8f#/	.	.	.	8r	.	.	.	.	.	.	.	8r	.	.	.	8r	.	8r	.
=73	=73	=73	=73	=73	=73	=73	=73	=73	=73	=73	=73	=73	=73	=73	=73	=73	=73	=73	=73	=73	=73	=73	=73	=73	=73
!	!	!	!	!	!	!LO:TX:a:t=sic&colon;s=4a	!	!	!	!	!	!	!	!	!	!	!	!	!	!	!	!LO:TX:a:t=2	!	!LO:TX:a:t=2	!
8r	.	4b\	.	4f#/	.	4g#/	.	2ryy	2ryy	(4a\	tak	2r	.	2r	.	2r	.	8r	.	2ryy	2ryy	2r	.	2r	.
8BB/L	.	.	.	.	.	.	.	.	.	.	.	.	.	.	.	.	.	8BB/L	.	.	.	.	.	.	.
8D#X/	.	8b\L	.	16e/LL	.	(16g#/LL	.	.	.	16g#\LL	bar-	.	.	.	.	.	.	8D#X/	.	.	.	.	.	.	.
.	.	.	.	16d#X/J	.	16f#/J)	.	.	.	16f#\JJ)	.	.	.	.	.	.	.	.	.	.	.	.	.	.	.
8BB/J	.	8b\J	.	8d#/J	.	8f#'/J	.	.	.	8f#\	-dzo	.	.	.	.	.	.	8BB/J	.	.	.	.	.	.	.
=74	=74	=74	=74	=74	=74	=74	=74	=74	=74	=74	=74	=74	=74	=74	=74	=74	=74	=74	=74	=74	=74	=74	=74	=74	=74
4E\	.	4b\	.	(8.g#/L	.	8.b\L	.	2ryy	2ryy	8.b\L	dla	2r	.	2r	.	2r	.	4E\	.	2ryy	2ryy	2r	.	2r	.
.	.	.	.	32e/LL	.	(32cc#\LL	.	.	.	32cc#\LL	.	.	.	.	.	.	.	.	.	.	.	.	.	.	.
!	!	!	!	!	!	!LO:TX:a:t=sic&colon;s=32dd#	!	!	!	!LO:TX:a:t=sic&colon;s=32dd#	!	!	!	!	!	!	!	!	!	!	!	!	!	!	!
.	.	.	.	32f#/JJJ)	.	32dd\JJJ)	.	.	.	32dd\JJJ	.	.	.	.	.	.	.	.	.	.	.	.	.	.	.
8EE/	.	8b\	.	8g#/	.	8ee\	.	.	.	8ee\	mnie	.	.	.	.	.	.	8EE/	.	.	.	.	.	.	.
8r	.	8r	.	16r	.	16r	.	.	.	16r	.	.	.	.	.	.	.	8r	.	.	.	.	.	.	.
.	.	.	.	16g#/	.	16ee\	.	.	.	16ee\	zbi-	.	.	.	.	.	.	.	.	.	.	.	.	.	.
=75	=75	=75	=75	=75	=75	=75	=75	=75	=75	=75	=75	=75	=75	=75	=75	=75	=75	=75	=75	=75	=75	=75	=75	=75	=75
!	!	!	!	!	!	!LO:TX:b:i:t=poco	!	!	!	!	!	!	!	!	!	!	!	!	!	!	!	!	!	!	!
8r	.	8e\L	.	8a/L	.	8cc#\L	.	2ryy	2ryy	8cc#\L	.	2r	.	2r	.	2r	.	8r	.	2ryy	2ryy	8aa\L	.	8ccc#\L	.
!LO:TX:t=P:problem:mixed beam	!	!	!	!LO:TX:t=P:problem:klamra łukowa	!	!LO:TX:t=P:problem:klamra łukowa	!	!	!	!LO:TX:t=P:problem:brak numeru	!	!	!	!	!	!	!	!LO:TX:t=P:problem:mixed beam	!	!	!	!LO:TX:t=P:problem:klamra łukowa	!	!LO:TX:t=P:problem:klamra łukowa	!
.	.	.	.	.	.	16qqdd/	.	.	.	8qqdd/	.	.	.	.	.	.	.	.	.	.	.	.	.	.	.
8A\L	.	8e\	.	24a/L	.	24cc#\L	.	.	.	24cc#\L	.	.	.	.	.	.	.	8A\L	.	.	.	24aa\L	.	24ccc#\L	.
.	.	.	.	24g#/	.	24b\	.	.	.	24b\	.	.	.	.	.	.	.	.	.	.	.	24gg#\	.	24bb\	.
.	.	.	.	24f#/JJ	.	24a\JJ	.	.	.	24a\JJ	.	.	.	.	.	.	.	.	.	.	.	24ff#\JJ	.	24aa\JJ	.
8B\	.	8b\	.	8e/L	.	(8g#/L	.	.	.	8g#\	.	.	.	.	.	.	.	8B\	.	.	.	8ee\L	.	8gg#\L	.
8BB\J	.	8b\J	.	8A/J	.	8f#/J)	.	.	.	8f#\	.	.	.	.	.	.	.	8BB\J	.	.	.	8dd#X\J	.	8ff#\J	.
=76	=76	=76	=76	=76	=76	=76	=76	=76	=76	=76	=76	=76	=76	=76	=76	=76	=76	=76	=76	=76	=76	=76	=76	=76	=76
4E\	.	4b\	.	4A/	.	4f#/	.	2ryy	2ryy	4f#\	-te-	2r	.	2r	.	2r	.	4E\	.	2ryy	2ryy	4a/	.	4ff#\	.
!	!	!	!	!LO:TX:b:t=g	!	!	!	!	!	!	!	!	!	!	!	!	!	!	!	!	!	!	!	!	!
8E\	.	8b\	.	8G#/	.	8e/	.	.	.	8e\	-go	.	.	.	.	.	.	8E\	.	.	.	8g#/	.	8ee\	.
8r	.	8r	.	8r	.	8r	.	.	.	8r	.	.	.	.	.	.	.	8r	.	.	.	8r	.	8r	.
=77	=77	=77	=77	=77	=77	=77	=77	=77	=77	=77	=77	=77	=77	=77	=77	=77	=77	=77	=77	=77	=77	=77	=77	=77	=77
!	!	!	!	!	!	!	!	!	!	!	!	!	!	!	!	!	!	!	!	!	!	!LO:TX:a:t=16	!	!LO:TX:a:t=7	!
8r	.	8r	.	4B/	.	4ddn\	.	2ryy	2ryy	4ddn\	ze	2r	.	2r	.	2r	.	8r	.	2ryy	2ryy	2r	.	2r	.
!	!	!LO:TX:a:t=|:problem	!	!	!	!	!	!	!	!	!	!	!	!	!	!	!	!	!	!	!	!	!	!	!
8E#X\L	.	8g#\L	.	.	.	.	.	.	.	.	.	.	.	.	.	.	.	8E#X\L	.	.	.	.	.	.	.
8E#\	.	8g#\	.	8d/L	.	8b\L	.	.	.	8b\	.	.	.	.	.	.	.	8E#\	.	.	.	.	.	.	.
8E#\J	.	8b\J	.	8d/J	.	8g#\J	.	.	.	8g#\	mną	.	.	.	.	.	.	8E#\J	.	.	.	.	.	.	.
=78	=78	=78	=78	=78	=78	=78	=78	=78	=78	=78	=78	=78	=78	=78	=78	=78	=78	=78	=78	=78	=78	=78	=78	=78	=78
8r	.	8r	.	8r	.	32a/LLL	.	2ryy	2ryy	32a\LLL	mę-	2r	.	2r	.	2r	.	8r	.	2ryy	2ryy	2r	.	2r	.
.	.	.	.	.	.	(32b/	.	.	.	32b\	.	.	.	.	.	.	.	.	.	.	.	.	.	.	.
.	.	.	.	.	.	32a/)	.	.	.	32a\	.	.	.	.	.	.	.	.	.	.	.	.	.	.	.
.	.	.	.	.	.	32g#/JJJ	.	.	.	32g#\JJJ	.	.	.	.	.	.	.	.	.	.	.	.	.	.	.
8F#\L	.	8a\L	.	8c#/L	.	8f#/	.	.	.	8f#\	-ke	.	.	.	.	.	.	8F#\L	.	.	.	.	.	.	.
8F#\	.	8a\	.	8c#/	.	8r	.	.	.	4r	.	.	.	.	.	.	.	8F#\	.	.	.	.	.	.	.
8F#\J	.	8a\J	.	8c#/J	.	8r	.	.	.	.	.	.	.	.	.	.	.	8F#\J	.	.	.	.	.	.	.
=79	=79	=79	=79	=79	=79	=79	=79	=79	=79	=79	=79	=79	=79	=79	=79	=79	=79	=79	=79	=79	=79	=79	=79	=79	=79
8r	.	8r	.	4A/	.	4ccn\	.	2ryy	2ryy	4ccn\	po-	2r	.	2r	.	2r	.	8r	.	2ryy	2ryy	2r	.	2r	.
8D#X\L	.	8f#\L	.	.	.	.	.	.	.	.	.	.	.	.	.	.	.	8D#X\L	.	.	.	.	.	.	.
8D#\	.	8f#\	.	8cn/L	.	8a'/L	.	.	.	8a\	.	.	.	.	.	.	.	8D#\	.	.	.	.	.	.	.
8D#\J	.	8a\J	.	8c/J	.	8f#'/J	.	.	.	8f#\	.	.	.	.	.	.	.	8D#\J	.	.	.	.	.	.	.
=80	=80	=80	=80	=80	=80	=80	=80	=80	=80	=80	=80	=80	=80	=80	=80	=80	=80	=80	=80	=80	=80	=80	=80	=80	=80
8r	.	8r	.	8r	.	32g#X/LLL	.	2ryy	2ryy	(32g#X\LLL	-dzie-	2r	.	2r	.	2r	.	8r	.	2ryy	2ryy	2r	.	2r	.
.	.	.	.	.	.	(32a/	.	.	.	32a\	.	.	.	.	.	.	.	.	.	.	.	.	.	.	.
.	.	.	.	.	.	32g#/	.	.	.	32g#\)	.	.	.	.	.	.	.	.	.	.	.	.	.	.	.
.	.	.	.	.	.	32f#/JJJ)	.	.	.	32f#\JJJ	.	.	.	.	.	.	.	.	.	.	.	.	.	.	.
8En\L	.	8g#\L	.	8B/L	.	8e/	.	.	.	8e\	-lay	.	.	.	.	.	.	8En\L	.	.	.	.	.	.	.
8E\	.	8g#\	.	8B/	.	4r	.	.	.	4r	.	.	.	.	.	.	.	8E\	.	.	.	.	.	.	.
8E\J	.	8g#\J	.	8B/J	.	.	.	.	.	.	.	.	.	.	.	.	.	8E\J	.	.	.	.	.	.	.
=81	=81	=81	=81	=81	=81	=81	=81	=81	=81	=81	=81	=81	=81	=81	=81	=81	=81	=81	=81	=81	=81	=81	=81	=81	=81
8r	.	4B/	.	4g#/	.	4b\	.	2ryy	2ryy	(4g#\	niech	4b\	niech	4e/	.	4b\	.	8r	.	2ryy	2ryy	2r	.	2r	.
8E\L	.	.	.	.	.	.	.	.	.	.	.	.	.	.	.	.	.	8E\L	.	.	.	.	.	.	.
!	!	!	!	!	!	!	!	!	!	!LO:TX:a:t=sic&colon;s=16a	!	!	!	!	!	!	!	!	!	!	!	!	!	!	!
8G#\	.	16c#/LL	.	16a/LL	.	(16cc#\LL	.	.	.	16g#\LL	z	16cc#\LL	z	8r	.	8r	.	8G#\	.	.	.	.	.	.	.
.	.	16d/	.	(16b/	.	16dd\	.	.	.	16b\JJ)	to-	16dd\JJ	to-	.	.	.	.	.	.	.	.	.	.	.	.
8E\J	.	16c#/	.	16a/	.	16cc#\	.	.	.	16a\LL	.	16cc#\LL	.	8e/	.	8b\	.	8E\J	.	.	.	.	.	.	.
.	.	16B/JJ	.	16g#/JJ)	.	16b\JJ)	.	.	.	16g#\JJ	.	16b\JJ	.	.	.	.	.	.	.	.	.	.	.	.	.
=82	=82	=82	=82	=82	=82	=82	=82	=82	=82	=82	=82	=82	=82	=82	=82	=82	=82	=82	=82	=82	=82	=82	=82	=82	=82
!LO:TX:t=P:problem:mixed beam	!	!	!	!	!	!	!	!	!	!	!	!	!	!	!	!	!	!LO:TX:t=P:problem:mixed beam	!	!	!	!	!	!	!
8A\L	.	4e\	.	4cc#\	.	4ee\	.	2ryy	2ryy	4cc#\	-bą	4ee\	-bą	4a\	.	4cc#\	.	8A\L	.	2ryy	2ryy	2r	.	2r	.
8AA\	.	.	.	.	.	.	.	.	.	.	.	.	.	.	.	.	.	8AA\	.	.	.	.	.	.	.
8A\J	.	8r	.	8r	.	8r	.	.	.	8r	.	8r	.	8r	.	8r	.	8A\J	.	.	.	.	.	.	.
!	!	!	!	!	!	!	!	!	!	!	!	!	!	!	!	!	!	!LO:TX:b:i:t=Verte Cito	!	!	!	!	!	!	!
8r	.	8a\	.	8cc#\	.	8aa\	.	.	.	8cc#\	i	8aa\	y	8a\	.	8cc#\	.	8r	.	.	.	.	.	.	.
=83	=83	=83	=83	=83	=83	=83	=83	=83	=83	=83	=83	=83	=83	=83	=83	=83	=83	=83	=83	=83	=83	=83	=83	=83	=83
8r	.	8e\L	.	4b\	.	4dd\	.	2ryy	2ryy	4b\	z mo-	4dd\	z mo-	4e/	.	4b\	.	8r	.	2ryy	2ryy	2r	.	2r	.
8E\L	.	8e\	.	.	.	.	.	.	.	.	.	.	.	.	.	.	.	8E\L	.	.	.	.	.	.	.
8G#\	.	8e\	.	4a\	.	4cc#\	.	.	.	4a\	-im	4cc#\	-im	4a\	.	4cc#\	.	8G#\	.	.	.	.	.	.	.
8A\J	.	8e\J	.	.	.	.	.	.	.	.	.	.	.	.	.	.	.	8A\J	.	.	.	.	.	.	.
=84	=84	=84	=84	=84	=84	=84	=84	=84	=84	=84	=84	=84	=84	=84	=84	=84	=84	=84	=84	=84	=84	=84	=84	=84	=84
!LO:TX:t=P:problem:mixed beam	!	!	!	!	!	!	!	!	!	!	!	!	!	!	!	!	!	!LO:TX:t=P:problem:mixed beam	!	!	!	!	!	!	!
8E/L	.	8e\L	.	8a/L	.	8cc#\L	.	2ryy	2ryy	8a\	Pa-	8cc#\	Pa-	8a\L	.	8cc#\L	.	8E/L	.	2ryy	2ryy	2r	.	4r	.
8EE/J	.	8e\	.	8g#/J	.	8b\J	.	.	.	8g#\	-nem	8b\	-nem	8e\J	.	8b\	.	8EE/J	.	.	.	.	.	.	.
4r	.	8a'\	.	4r	.	4r	.	.	.	4r	.	4r	.	4r	.	8a\	.	4r	.	.	.	.	.	8aa\L	.
.	.	[8a'\J	pp	.	.	.	.	.	.	.	.	.	.	.	.	8a\J	.	.	.	.	.	.	.	[8aa\J	.
=85	=85	=85	=85	=85	=85	=85	=85	=85	=85	=85	=85	=85	=85	=85	=85	=85	=85	=85	=85	=85	=85	=85	=85	=85	=85
!	!	!	!	!	!	!	!	!	!	!	!	!	!	!	!	!	!	!	!	!	!	!	!	!LO:TX:a:t=t	!
!	!	!	!	!	!LO:DY:a	!	!LO:DY:a	!	!	!LO:TX:a:t=8	!	!	!	!LO:TX:a:t=21	!	!	!	!	!	!	!	!	!	!LO:TX:t=P:problem:linia falista do t. 87	!
4AA/	.	2a\_	.	8r	p	8r	p	2ryy	2ryy	2r	.	4.a\	bol	2r	.	2a\	.	4AA/	.	2ryy	2ryy	2r	.	2aa\_	pp
.	.	.	.	8gn/L	.	8ee\L	.	.	.	.	.	.	.	.	.	.	.	.	.	.	.	.	.	.	.
4r	.	.	.	8f#/	.	(8dd\	.	.	.	.	.	.	.	.	.	.	.	4r	.	.	.	.	.	.	.
.	.	.	.	8e/J	.	8cc#\J)	.	.	.	.	.	8a\	czu-	.	.	.	.	.	.	.	.	.	.	.	.
=86	=86	=86	=86	=86	=86	=86	=86	=86	=86	=86	=86	=86	=86	=86	=86	=86	=86	=86	=86	=86	=86	=86	=86	=86	=86
4D\	.	2a\_	.	8f#/L	.	(8dd\L	.	2ryy	2ryy	2r	.	4.a\	-ie	2r	.	2a\	.	4D\	.	2ryy	2ryy	2r	.	2aa\_	.
!	!	!	!	!LO:TX:a:t=sic&colon;s=8gn	!	!	!	!	!	!	!	!	!	!	!	!	!	!	!	!	!	!	!	!	!
.	.	.	.	8g#/	.	8ee\	.	.	.	.	.	.	.	.	.	.	.	.	.	.	.	.	.	.	.
4r	.	.	.	8a/	.	8ff#\)	.	.	.	.	.	.	.	.	.	.	.	4r	.	.	.	.	.	.	.
!	!	!	!	!	!	!LO:TX:a:t=sic&colon;s=8ggn	!	!	!	!	!	!	!	!	!	!	!	!	!	!	!	!	!	!	!
.	.	.	.	8b/J	.	8gg#\J	.	.	.	.	.	8a\	u-	.	.	.	.	.	.	.	.	.	.	.	.
=87	=87	=87	=87	=87	=87	=87	=87	=87	=87	=87	=87	=87	=87	=87	=87	=87	=87	=87	=87	=87	=87	=87	=87	=87	=87
4A\	.	2a\_	.	8gn/L	.	(8ee\L	.	2ryy	2ryy	2r	.	4.a\	-krzy-	2r	.	2a\	.	4A\	.	2ryy	2ryy	2r	.	2aa\_	.
.	.	.	.	8f#/	.	8dd\	.	.	.	.	.	.	.	.	.	.	.	.	.	.	.	.	.	.	.
8r	.	.	.	8e/	.	8cc#\)	.	.	.	.	.	.	.	.	.	.	.	8r	.	.	.	.	.	.	.
8A\	.	.	.	8g/J	.	8ee\J	.	.	.	.	.	8a\	-zo-	.	.	.	.	8A\	.	.	.	.	.	.	.
=88	=88	=88	=88	=88	=88	=88	=88	=88	=88	=88	=88	=88	=88	=88	=88	=88	=88	=88	=88	=88	=88	=88	=88	=88	=88
!LO:TX:t=P:problem:mixed beam	!	!	!	!LO:TX:a:t=sic&colon;s=8gn	!	!	!	!	!	!	!	!	!	!	!	!	!	!LO:TX:t=P:problem:mixed beam	!	!	!	!	!	!	!
8d\L	.	8a\L]	.	8g#/L	.	(8ee\L	.	2ryy	2ryy	2r	.	8a\	-wa-	2r	.	4a\	.	8d\L	.	2ryy	2ryy	2r	.	4aa\]	.
8D\J	.	8a\	.	8f#/J	.	8dd\J)	.	.	.	.	.	8a\	-nym	.	.	.	.	8D\J	.	.	.	.	.	.	.
!	!	!	!	!	!	!	!	!	!	!	!	!	!	!	!	!	!	!	!	!	!	!	!	!LO:TX:a:t=|:problem	!
4r	.	8b'\	.	4r	.	4r	.	.	.	.	.	4r	.	.	.	8b\L	.	4r	.	.	.	.	.	8bb\L	.
!	!	!	!	!	!	!	!	!	!	!	!	!	!	!	!	!	!	!	!	!	!	!	!	!LO:TX:a:t=|:problem	!
.	.	[8b'\J	.	.	.	.	.	.	.	.	.	.	.	.	.	8b\J	.	.	.	.	.	.	.	[8bb\J	.
=89	=89	=89	=89	=89	=89	=89	=89	=89	=89	=89	=89	=89	=89	=89	=89	=89	=89	=89	=89	=89	=89	=89	=89	=89	=89
!	!	!	!	!	!	!	!	!	!	!	!	!	!	!	!	!	!	!	!	!	!	!	!	!LO:TX:a:t=t	!
!	!	!	!	!	!	!	!	!	!	!	!	!	!	!	!	!	!	!	!	!	!	!	!	!LO:TX:t=P:problem:linia falista do t. 91	!
4BB/	.	2b\_	.	8r	.	8r	.	2ryy	2ryy	2r	.	4.b\	bol	2r	.	2b\	.	4BB/	.	2ryy	2ryy	2r	.	2bb\_	.
.	.	.	.	8a/L	.	(8ff#\L	.	.	.	.	.	.	.	.	.	.	.	.	.	.	.	.	.	.	.
4r	.	.	.	8g#X/	.	8ee\	.	.	.	.	.	.	.	.	.	.	.	4r	.	.	.	.	.	.	.
.	.	.	.	8f#/J	.	8dd#X\J)	.	.	.	.	.	8b\	czu-	.	.	.	.	.	.	.	.	.	.	.	.
=90	=90	=90	=90	=90	=90	=90	=90	=90	=90	=90	=90	=90	=90	=90	=90	=90	=90	=90	=90	=90	=90	=90	=90	=90	=90
4E\	.	2b\_	.	8g#/L	.	(8ee\L	.	2ryy	2ryy	2r	.	4.b\	-ię	2r	.	2b\	.	4E\	.	2ryy	2ryy	2r	.	2bb\_	.
.	.	.	.	(8a/	.	8ff#\	.	.	.	.	.	.	.	.	.	.	.	.	.	.	.	.	.	.	.
4r	.	.	.	8b/	.	8gg#\	.	.	.	.	.	.	.	.	.	.	.	4r	.	.	.	.	.	.	.
.	.	.	.	8cc#/J)	.	8aa\J)	.	.	.	.	.	8b\	u-	.	.	.	.	.	.	.	.	.	.	.	.
=91	=91	=91	=91	=91	=91	=91	=91	=91	=91	=91	=91	=91	=91	=91	=91	=91	=91	=91	=91	=91	=91	=91	=91	=91	=91
4BB/	.	2b\_	.	8a/L	.	(8ff#\L	.	2ryy	2ryy	2r	.	4.b\	-krzy-	2r	.	2b\	.	4BB/	.	2ryy	2ryy	2r	.	2bb\_	.
.	.	.	.	8g#/	.	8ee\	.	.	.	.	.	.	.	.	.	.	.	.	.	.	.	.	.	.	.
8r	.	.	.	8f#/	.	8dd#X\)	.	.	.	.	.	.	.	.	.	.	.	8r	.	.	.	.	.	.	.
8BB/	.	.	.	8a/J	.	8ff#\J	.	.	.	.	.	8b\	-zo-	.	.	.	.	8BB/	.	.	.	.	.	.	.
=92	=92	=92	=92	=92	=92	=92	=92	=92	=92	=92	=92	=92	=92	=92	=92	=92	=92	=92	=92	=92	=92	=92	=92	=92	=92
!LO:TX:t=P:problem:mixed beam	!	!	!	!	!	!	!	!	!	!	!	!	!	!	!	!	!	!LO:TX:t=P:problem:mixed beam	!	!	!	!	!	!LO:TX:a:t=|:problem	!
8E/L	.	8b'\L]	.	8a/L	.	8ff#'\L	.	2ryy	2ryy	2r	.	8b\	-wa-	2r	.	4b\	.	8E/L	.	2ryy	2ryy	2r	.	8bb\L]	.
!	!	!	!	!	!	!	!	!	!	!	!	!	!	!	!	!	!	!	!	!	!	!	!	!LO:TX:a:t=|:problem	!
8EE/J	.	8b'\J	.	8g#/J	.	8ee'\J	.	.	.	.	.	8b\	-nym	.	.	.	.	8EE/J	.	.	.	.	.	8bb\J	.
4r	.	4r	.	4r	.	4r	.	.	.	.	.	4r	.	.	.	4r	.	4r	.	.	.	.	.	4r	.
=93	=93	=93	=93	=93	=93	=93	=93	=93	=93	=93	=93	=93	=93	=93	=93	=93	=93	=93	=93	=93	=93	=93	=93	=93	=93
!	!	!LO:TX:t=P:problem:4 kropki art.	!	!LO:N:vis=2.	!	!LO:N:vis=2.	!	!	!	!	!	!	!	!	!	!	!	!	!	!	!	!	!	!	!
!LO:TX:t=P:problem:4 kropki art.	!	!LO:TX:b:i:t=Stoccato	!	!LO:TX:t=P:problem:4 kropki art.	!	!LO:TX:t=P:problem:4 kropki art.	!LO:DY:a	!	!	!	!	!	!	!	!	!LO:TX:a:t=13	!	!	!	!	!	!	!	!	!
8E\L	.	8e\L	.	8g#/L	p	8bT\L	p	2ryy	2ryy	(32g#\LLL	u-	32b\LLL	u-	2r	.	2r	.	8E\L	.	2ryy	2ryy	8r	.	8r	.
.	.	.	.	.	.	.	.	.	.	32a\)	.	32cc#\JJJ	.	.	.	.	.	.	.	.	.	.	.	.	.
.	.	.	.	.	.	.	.	.	.	(32g#\	.	32b\LLL	.	.	.	.	.	.	.	.	.	.	.	.	.
.	.	.	.	.	.	.	.	.	.	32a\JJJ)	.	32cc#\JJJ	.	.	.	.	.	.	.	.	.	.	.	.	.
8E\	.	8e\	.	8g#/	.	8bT\	.	.	.	8b\	.	8dd\	.	.	.	.	.	8E\	.	.	.	16r	.	16r	.
!	!	!	!	!	!	!	!	!	!	!	!	!	!	!	!	!	!	!	!	!	!	!	!	!LO:N:vis=16	!
.	.	.	.	.	.	.	.	.	.	.	.	.	.	.	.	.	.	.	.	.	.	(32gg#\LLL	.	(32bb\LLL	.
!	!	!	!	!	!	!	!	!	!	!	!	!	!	!	!	!	!	!	!	!	!	!	!	!LO:N:vis=16	!
.	.	.	.	.	.	.	.	.	.	.	.	.	.	.	.	.	.	.	.	.	.	32aa\JJJ	.	32ccc#\JJJ)	.
8E\	.	8e\	.	8g#/	.	8bT\	.	.	.	16r	.	16r	.	.	.	.	.	8E\	.	.	.	8bb\)	.	8ddd\	.
.	.	.	.	.	.	.	.	.	.	16b\LL	.	16dd\LL	.	.	.	.	.	.	.	.	.	.	.	.	.
!	!	!	!	!	!	!	!	!	!	!	!	!	!	!	!	!	!	!	!	!	!	!	!	!LO:N:vis=16	!
8E\J	.	8e\J	.	8g#/J	.	8bT\J	.	.	.	16a\	.	16cc#\	.	.	.	.	.	8E\J	.	.	.	8r	.	8r	.
.	.	.	.	.	.	.	.	.	.	16g#\JJ	.	16b\JJ	.	.	.	.	.	.	.	.	.	.	.	.	.
=94	=94	=94	=94	=94	=94	=94	=94	=94	=94	=94	=94	=94	=94	=94	=94	=94	=94	=94	=94	=94	=94	=94	=94	=94	=94
!	!	!	!	!	!	!LO:N:vis=2.	!	!	!	!	!	!	!	!	!	!	!	!	!	!	!	!	!	!	!
!LO:TX:t=P:problem:4 kropki art.	!	!LO:TX:t=P:problem:4 kropki art.	!	!LO:N:vis=2.	!	!LO:TX:t=P:problem:4 kropki art.	!	!	!	!	!	!	!	!	!	!	!	!	!	!	!	!LO:TX:a:t=1.	!	!LO:TX:a:t=1.	!
8E\L	.	8e\L	.	8g#/L	.	8bT\L	.	2ryy	2ryy	16r	.	16r	.	2r	.	2r	.	8E\L	.	2ryy	2ryy	2r	.	2r	.
.	.	.	.	.	.	.	.	.	.	16g#\LL	.	16b\LL	.	.	.	.	.	.	.	.	.	.	.	.	.
8E\	.	8e\	.	8g#/	.	8bT\	.	.	.	16a\	.	16cc#\	.	.	.	.	.	8E\	.	.	.	.	.	.	.
.	.	.	.	.	.	.	.	.	.	16b\JJ	.	16dd\JJ	.	.	.	.	.	.	.	.	.	.	.	.	.
8E\	.	8e\	.	8g#/	.	8bT\	.	.	.	16cc#\LL	.	16ee\LL	.	.	.	.	.	8E\	.	.	.	.	.	.	.
.	.	.	.	.	.	.	.	.	.	16b\	.	16dd\	.	.	.	.	.	.	.	.	.	.	.	.	.
8E\J	.	8e\J	.	8g#/J	.	8bT\J	.	.	.	16a\	.	16cc#\	.	.	.	.	.	8E\J	.	.	.	.	.	.	.
.	.	.	.	.	.	.	.	.	.	16g#\JJ	.	16b#X\JJ	.	.	.	.	.	.	.	.	.	.	.	.	.
=95	=95	=95	=95	=95	=95	=95	=95	=95	=95	=95	=95	=95	=95	=95	=95	=95	=95	=95	=95	=95	=95	=95	=95	=95	=95
!	!	!	!	!	!	!LO:N:vis=2.	!	!	!	!	!	!	!	!	!	!	!	!	!	!	!	!	!	!	!
!LO:TX:t=P:problem:4 kropki art.	!	!LO:TX:t=P:problem:4 kropki art.	!	!LO:N:vis=2.	!	!LO:TX:t=P:problem:4 kropki art.	!	!	!	!	!	!LO:TX:a:t=sic&colon;s=8b#	!	!	!	!	!	!	!	!	!	!	!	!	!
8E\L	.	8e\L	.	8a/L	.	8cc#\L	.	2ryy	2ryy	8g#\L	.	8b\L	.	2r	.	2r	.	8E\L	.	2ryy	2ryy	4r	.	4r	.
8E\	.	8e\	.	8a/	.	8cc#\	.	.	.	16a\Jk	.	16cc#\Jk	.	.	.	.	.	8E\	.	.	.	.	.	.	.
.	.	.	.	.	.	.	.	.	.	16r	.	16r	.	.	.	.	.	.	.	.	.	.	.	.	.
8E\	.	8e\	.	8a/	.	8cc#\	.	.	.	32a\LLL	.	32cc#\LLL	.	.	.	.	.	8E\	.	.	.	16r	.	8r	.
.	.	.	.	.	.	.	.	.	.	(32b\	.	(32dd\	.	.	.	.	.	.	.	.	.	.	.	.	.
.	.	.	.	.	.	.	.	.	.	32a\)	.	32cc#\	.	.	.	.	.	.	.	.	.	8r	.	.	.
.	.	.	.	.	.	.	.	.	.	32b\JJJ	.	32dd\JJJ)	.	.	.	.	.	.	.	.	.	.	.	.	.
8E\J	.	8e\J	.	8a/J	.	8cc#\J	.	.	.	8cc#\	.	8ee\	.	.	.	.	.	8E\J	.	.	.	.	.	16r	.
!	!	!	!	!	!	!	!	!	!	!	!	!	!	!	!	!	!	!	!	!	!	!	!	!LO:N:vis=16	!
.	.	.	.	.	.	.	.	.	.	.	.	.	.	.	.	.	.	.	.	.	.	(32aa\LLL	.	(32ccc#\LLL	.
!	!	!	!	!	!	!	!	!	!	!	!	!	!	!	!	!	!	!	!	!	!	!	!	!LO:N:vis=16	!
.	.	.	.	.	.	.	.	.	.	.	.	.	.	.	.	.	.	.	.	.	.	32bb\JJJ)	.	32ddd\JJJ)	.
=96	=96	=96	=96	=96	=96	=96	=96	=96	=96	=96	=96	=96	=96	=96	=96	=96	=96	=96	=96	=96	=96	=96	=96	=96	=96
!	!	!	!	!	!	!LO:N:vis=2.	!	!	!	!	!	!	!	!	!	!	!	!	!	!	!	!	!	!	!
!LO:TX:t=P:problem:4 kropki art.	!	!LO:TX:t=P:problem:4 kropki art.	!	!LO:N:vis=2.	!	!LO:TX:t=P:problem:4 kropki art.	!	!	!	!	!	!	!	!	!	!	!	!	!	!	!	!	!	!	!
8E\L	.	8e\L	.	8a/L	.	8cc#\L	.	2ryy	2ryy	16r	.	16r	.	2r	.	2r	.	8E\L	.	2ryy	2ryy	8ccc#\	.	8eee\	.
.	.	.	.	.	.	.	.	.	.	16a\LL	.	16ee\LL	.	.	.	.	.	.	.	.	.	.	.	.	.
8E\	.	8e\	.	8a/	.	8cc#\	.	.	.	16b\	.	16dd\	.	.	.	.	.	8E\	.	.	.	8r	.	8r	.
.	.	.	.	.	.	.	.	.	.	16a\JJ	.	16cc#\JJ	.	.	.	.	.	.	.	.	.	.	.	.	.
8E\	.	8e\	.	8a/	.	8cc#\	.	.	.	16r	.	16r	.	.	.	.	.	8E\	.	.	.	4r	.	4r	.
.	.	.	.	.	.	.	.	.	.	16a\LL	.	(16cc#\LL	.	.	.	.	.	.	.	.	.	.	.	.	.
8E\J	.	8e\J	.	8a/J	.	8cc#\J	.	.	.	16b\	.	16dd\)	.	.	.	.	.	8E\J	.	.	.	.	.	.	.
.	.	.	.	.	.	.	.	.	.	16cc#\JJ	.	16ee\JJ	.	.	.	.	.	.	.	.	.	.	.	.	.
=97	=97	=97	=97	=97	=97	=97	=97	=97	=97	=97	=97	=97	=97	=97	=97	=97	=97	=97	=97	=97	=97	=97	=97	=97	=97
!	!	!	!	!	!	!LO:N:vis=2.	!	!	!	!	!	!	!	!	!	!	!	!	!	!	!	!	!	!	!
!LO:TX:t=P:problem:4 kropki art.	!	!LO:TX:t=P:problem:4 kropki art.	!	!LO:N:vis=2.	!	!LO:TX:t=P:problem:4 kropki art.	!	!	!	!	!	!	!	!	!	!	!	!	!	!	!	!	!	!LO:TX:a:t=1.	!
8E\L	.	8e\L	.	8b\L	.	8dd\L	.	2ryy	2ryy	16dd\LL	.	16ff#\LL	.	2r	.	2r	.	8E\L	.	2ryy	2ryy	2r	.	2r	.
.	.	.	.	.	.	.	.	.	.	16cc#\	.	16ee\	.	.	.	.	.	.	.	.	.	.	.	.	.
8E\	.	8e\	.	8b\	.	8dd\	.	.	.	16b\	.	16dd\	.	.	.	.	.	8E\	.	.	.	.	.	.	.
.	.	.	.	.	.	.	.	.	.	16a#X\JJ	.	16cc#\JJ	.	.	.	.	.	.	.	.	.	.	.	.	.
8E\	.	8e\	.	8b\	.	8dd\	.	.	.	8a#\L	.	8cc#\L	.	.	.	.	.	8E\	.	.	.	.	.	.	.
8E\J	.	8e\J	.	8b\J	.	8dd\J	.	.	.	16b\Jk	.	16dd\Jk	.	.	.	.	.	8E\J	.	.	.	.	.	.	.
.	.	.	.	.	.	.	.	.	.	16r	.	16r	.	.	.	.	.	.	.	.	.	.	.	.	.
*	*	*	*	*	*	*	*	*	*	*	*	*	*	*	*	*	*	*Xtremolo	*	*	*	*	*	*	*
*	*	*	*	*	*	*Xtremolo	*	*	*	*	*	*	*	*	*	*	*	*	*	*	*	*	*	*	*
*	*	*	*	*Xtremolo	*	*	*	*	*	*	*	*	*	*	*	*	*	*	*	*	*	*	*	*	*
*	*	*Xtremolo	*	*	*	*	*	*	*	*	*	*	*	*	*	*	*	*	*	*	*	*	*	*	*
*Xtremolo	*	*	*	*	*	*	*	*	*	*	*	*	*	*	*	*	*	*	*	*	*	*	*	*	*
=98	=98	=98	=98	=98	=98	=98	=98	=98	=98	=98	=98	=98	=98	=98	=98	=98	=98	=98	=98	=98	=98	=98	=98	=98	=98
8E\L	.	8g#\L	.	8b\L	.	8dd'\L	.	2ryy	2ryy	(32b\LLL	.	32dd\LLL	.	2r	.	2r	.	8E\L	.	2ryy	2ryy	8r	.	8r	.
.	.	.	.	.	.	.	.	.	.	32cc#\	.	32ee\	.	.	.	.	.	.	.	.	.	.	.	.	.
.	.	.	.	.	.	.	.	.	.	32b\)	.	32dd\	.	.	.	.	.	.	.	.	.	.	.	.	.
.	.	.	.	.	.	.	.	.	.	32cc#\JJJ	.	32ee\JJJ	.	.	.	.	.	.	.	.	.	.	.	.	.
8E\	.	8g#\	.	8b\	.	8dd'\	.	.	.	8dd\	.	8ff#\	.	.	.	.	.	8E\	.	.	.	16r	.	16r	.
!	!	!	!	!	!	!	!	!	!	!	!	!	!	!	!	!	!	!	!	!	!	!	!	!LO:N:vis=16	!
.	.	.	.	.	.	.	.	.	.	.	.	.	.	.	.	.	.	.	.	.	.	32b\LLL	.	(32dd\LLL	.
!	!	!	!	!	!	!	!	!	!	!	!	!	!	!	!	!	!	!	!	!	!	!	!	!LO:N:vis=16	!
.	.	.	.	.	.	.	.	.	.	.	.	.	.	.	.	.	.	.	.	.	.	32cc#\JJJ	.	32ee\JJJ)	.
8E\J	.	8g#\J	.	8b\J	.	8dd'\J	.	.	.	16r	.	16r	.	.	.	.	.	8E\J	.	.	.	16dd'\LL	.	16ff#'\LL	.
.	.	.	.	.	.	.	.	.	.	16dd\LL	.	16ff#\LL	.	.	.	.	.	.	.	.	.	16dd'\	.	16ff#'\	.
8r	.	8r	.	8r	.	8r	.	.	.	16cc#\	.	16ee\	.	.	.	.	.	8r	.	.	.	(16cc#\	.	(16ee\	.
.	.	.	.	.	.	.	.	.	.	16b\JJ	.	16dd\JJ	.	.	.	.	.	.	.	.	.	16b\JJ)	.	16dd\JJ)	.
=99	=99	=99	=99	=99	=99	=99	=99	=99	=99	=99	=99	=99	=99	=99	=99	=99	=99	=99	=99	=99	=99	=99	=99	=99	=99
8G#\	.	8d\	.	8b\	.	8ee\	.	2ryy	2ryy	16r	.	16r	.	2r	.	2r	.	8G#\	.	2ryy	2ryy	16r	.	16r	.
.	.	.	.	.	.	.	.	.	.	16b\LL	.	16dd\LL	.	.	.	.	.	.	.	.	.	16b/LL	.	16dd\LL	.
8r	.	8r	.	8r	.	8r	.	.	.	16an\	.	16cc#\	.	.	.	.	.	8r	.	.	.	16a/	.	16cc#\	.
.	.	.	.	.	.	.	.	.	.	16g#\JJ	.	16b\JJ	.	.	.	.	.	.	.	.	.	16g#/JJ	.	16b\JJ	.
4A\	.	8e\	.	16cc#'\LL	.	(16ee'\LL	.	.	.	16cc#\LL	.	16ee\LL	.	.	.	.	.	4A\	.	.	.	8a/	.	8ee\	.
.	.	.	.	16a'\	.	16cc#'\	.	.	.	16a\JJ	.	(16cc#\JJ	.	.	.	.	.	.	.	.	.	.	.	.	.
.	.	8r	.	16b'\	.	16dd'\	.	.	.	16b\LL	.	(16dd\LL)	.	.	.	.	.	.	.	.	.	8r	.	8r	.
.	.	.	.	16cc#'\JJ	.	16ee'\JJ)	.	.	.	16cc#\JJ	.	16ee\JJ)	.	.	.	.	.	.	.	.	.	.	.	.	.
=100	=100	=100	=100	=100	=100	=100	=100	=100	=100	=100	=100	=100	=100	=100	=100	=100	=100	=100	=100	=100	=100	=100	=100	=100	=100
!LO:TX:a:t=1	!	!LO:TX:a:t=1.	!	!	!	!	!	!	!	!	!	!	!	!	!	!	!	!LO:TX:a:t=1	!	!	!	!	!	!LO:TX:a:t=3	!
2r	.	2r	.	(16dd\LL	.	16ff#'\LL	.	2ryy	2ryy	16dd\LL	.	16ff#\LL	.	2r	.	2r	.	2r	.	2ryy	2ryy	2r	.	2r	.
.	.	.	.	16ee\	.	16gg#'\	.	.	.	16ee\JJ	.	16gg#\JJ	.	.	.	.	.	.	.	.	.	.	.	.	.
.	.	.	.	16ff#\)	.	16aa'\	.	.	.	16ff#\LL	.	16aa\LL	.	.	.	.	.	.	.	.	.	.	.	.	.
.	.	.	.	16ee\JJ	.	16gg#'\JJ	.	.	.	16ee\JJ	.	16gg#\JJ	.	.	.	.	.	.	.	.	.	.	.	.	.
.	.	.	.	16dd\LL	.	16ff#'\LL	.	.	.	16dd\LL	.	16ff#\LL	.	.	.	.	.	.	.	.	.	.	.	.	.
.	.	.	.	16cc#\	.	16ee'\	.	.	.	16cc#\	.	16ee\JJ	.	.	.	.	.	.	.	.	.	.	.	.	.
.	.	.	.	16b\	.	16dd'\	.	.	.	16b\	.	16dd\LL	.	.	.	.	.	.	.	.	.	.	.	.	.
.	.	.	.	16a\JJ	.	16cc#'\JJ	.	.	.	16a\JJ	.	16cc#\JJ	.	.	.	.	.	.	.	.	.	.	.	.	.
=101	=101	=101	=101	=101	=101	=101	=101	=101	=101	=101	=101	=101	=101	=101	=101	=101	=101	=101	=101	=101	=101	=101	=101	=101	=101
8r	.	8B/L	.	8g#/L	.	8b'\L	.	2ryy	2ryy	8g#\	-krzy-	8b\	-krzy-	2r	.	2r	.	8r	.	2ryy	2ryy	2r	.	2r	.
!	!	!	!	!	!	!	!	!	!	!LO:TX:a:t=sic&colon;s=8g#	!	!	!	!	!	!	!	!	!	!	!	!	!	!	!
8E\L	.	8B/	.	8g#/	.	(8b'\	.	.	.	8f#\	-zo-	8b\	-zo-	.	.	.	.	8E\L	.	.	.	.	.	.	.
8A\	.	8c#/	.	8a/	.	8cc#\	.	.	.	8a\L	-wa-	8cc#\	-wa-	.	.	.	.	8A\	.	.	.	.	.	.	.
8G#\J	.	8d/J	.	8b/J	.	8dd\J)	.	.	.	8b\J	-nem	8dd\	-nym	.	.	.	.	8G#\J	.	.	.	.	.	.	.
=102	=102	=102	=102	=102	=102	=102	=102	=102	=102	=102	=102	=102	=102	=102	=102	=102	=102	=102	=102	=102	=102	=102	=102	=102	=102
8A\L	.	8e\L	.	16cc#/LL	.	16ee\LL	.	2ryy	2ryy	16cc#\LL	u-	16ee\LL	u-	2r	.	2r	.	8A\L	.	2ryy	2ryy	2r	.	2r	.
.	.	.	.	16a/	.	(16cc#\	.	.	.	16a\	.	16cc#\JJ	.	.	.	.	.	.	.	.	.	.	.	.	.
8D\	.	8f#\	.	16f#/	.	16dd\	.	.	.	16f#\	.	16dd\LL	.	.	.	.	.	8D\	.	.	.	.	.	.	.
.	.	.	.	16d/JJ	.	16b\JJ)	.	.	.	16d\JJ	.	16b\JJ	.	.	.	.	.	.	.	.	.	.	.	.	.
8E\	.	8e\	.	8c#/L	.	8a'/L	.	.	.	8c#/L	-krzy-	8a\	-krzy-	.	.	.	.	8E\	.	.	.	.	.	.	.
8E\J	.	8e\J	.	8B/J	.	8g#'/J	.	.	.	8B/J	-zo-	8g#\	-zo-	.	.	.	.	8E\J	.	.	.	.	.	.	.
=103	=103	=103	=103	=103	=103	=103	=103	=103	=103	=103	=103	=103	=103	=103	=103	=103	=103	=103	=103	=103	=103	=103	=103	=103	=103
8AA/L	.	8e\	.	16cc#\LL	.	8ee'\L	.	2ryy	2ryy	16cc#\LL	.	16ee\LL	.	2r	.	2r	.	8AA/L	.	2ryy	2ryy	8cc#\L	p	8ee\L	.
.	.	.	.	16a\	.	.	.	.	.	16a\JJ	.	16cc#\JJ	.	.	.	.	.	.	.	.	.	.	.	.	.
8D/	.	8r	.	16ff#\	.	(16aa\L	.	.	.	16f#\LL	.	16aa\LL	.	.	.	.	.	8D/	.	.	.	8dd\	.	8ff#\	.
.	.	.	.	16dd\JJ	.	16ff#\JJ)	.	.	.	16d\JJ	.	16ff#\JJ	.	.	.	.	.	.	.	.	.	.	.	.	.
8C#/	.	8e\	.	16cc#\LL	.	8ee\L	.	.	.	16cc#\LL	.	16ee\LL	.	.	.	.	.	8C#/	.	.	.	8cc#\	.	8ee\	.
.	.	.	.	16a\	.	.	.	.	.	16a\JJ	.	16cc#\JJ	.	.	.	.	.	.	.	.	.	.	.	.	.
8D/J	.	8r	.	16ff#\	.	(16aa\L	.	.	.	16f#\LL	.	16aa\LL	.	.	.	.	.	8D/J	.	.	.	8dd\J	.	8ff#\J	.
.	.	.	.	16dd\JJ	.	16ff#\JJ)	.	.	.	16d\JJ	.	16ff#\JJ	.	.	.	.	.	.	.	.	.	.	.	.	.
=104	=104	=104	=104	=104	=104	=104	=104	=104	=104	=104	=104	=104	=104	=104	=104	=104	=104	=104	=104	=104	=104	=104	=104	=104	=104
!	!	!	!	!LO:TX:t=P:problem:mixed beam	!	!	!	!	!	!	!	!	!	!	!	!	!	!	!	!	!	!	!	!	!
8C#/L	.	8e\L	.	8cc#\L	.	8ee\L	.	2ryy	2ryy	8c#\L	-wa-	8ee\	.	2r	.	2r	.	8C#/L	.	2ryy	2ryy	4cc#\	.	4ee\	.
!	!	!	!	!	!	!LO:TX:t=P:problem:klamra łukowa	!	!	!	!LO:TX:t=P:problem:brak numeru	!	!LO:TX:t=P:problem:brak numeru	!	!	!	!	!	!	!	!	!	!	!	!	!
.	.	.	.	.	.	16qqee/	.	.	.	.	.	8qqee/	.	.	.	.	.	.	.	.	.	.	.	.	.
8D/	.	8f#\	.	24f#\L	.	24dd\L	.	.	.	((24f#\L	.	24dd\LL	.	.	.	.	.	8D/	.	.	.	.	.	.	.
.	.	.	.	24e\	.	24cc#\	.	.	.	24e\	.	24cc#\	.	.	.	.	.	.	.	.	.	.	.	.	.
.	.	.	.	24d\JJ	.	24b\JJ	.	.	.	24d\JJ))	.	24b\JJ	.	.	.	.	.	.	.	.	.	.	.	.	.
8E/	.	8e\	.	8c#/L	.	8a/L	.	.	.	8c#\	.	8a\	.	.	.	.	.	8E/	.	.	.	8r	.	8r	.
8EE/J	.	8e\J	.	8B/J	.	8g#/J	.	.	.	16B\LL	.	16g#\LL	.	.	.	.	.	8EE/J	.	.	.	8b\	.	8gg#\	.
.	.	.	.	.	.	.	.	.	.	16d\JJ	.	16b\JJ	.	.	.	.	.	.	.	.	.	.	.	.	.
=105	=105	=105	=105	=105	=105	=105	=105	=105	=105	=105	=105	=105	=105	=105	=105	=105	=105	=105	=105	=105	=105	=105	=105	=105	=105
4AA/	.	4e\	.	4B/	.	4g#/	.	2ryy	2ryy	4d\	.	4b\	-wa-	2r	.	2r	.	4AA/	.	2ryy	2ryy	4b\	.	4gg#\	.
8A\	.	8e\	.	8c#/	.	8a/	.	.	.	8c#\	-nem.	8a\	-nym.	.	.	.	.	8A\	.	.	.	8cc#\	.	8aa\	.
8r	.	8r	.	8r	.	8r	.	.	.	8r	.	8r	.	.	.	.	.	8r	.	.	.	8r	.	8r	.
=106	=106	=106	=106	=106	=106	=106	=106	=106	=106	=106	=106	=106	=106	=106	=106	=106	=106	=106	=106	=106	=106	=106	=106	=106	=106
!	!	!	!	!	!	!	!	!	!	!	!	!	!	!	!	!	!	!	!	!	!	!	!	!LO:TX:t=P:problem:takty 106 - 109 bardzo niejasne harmonicznie	!
!	!	!LO:TX:b:i:t=Dolce	!	!	!	!	!	!	!	!LO:TX:a:t=17	!	!LO:TX:a:t=17	!	!	!	!	!	!	!	!	!	!	!	!LO:TX:a:t=4	!
4E\	.	4.B/	.	16d/LL	.	(4b\	.	2ryy	2ryy	2r	.	2r	.	4e/	.	4.b\	.	4E\	.	2ryy	2ryy	2r	.	2r	.
.	.	.	.	16e/	.	.	.	.	.	.	.	.	.	.	.	.	.	.	.	.	.	.	.	.	.
.	.	.	.	16d/	.	.	.	.	.	.	.	.	.	.	.	.	.	.	.	.	.	.	.	.	.
.	.	.	.	16e/JJ	.	.	.	.	.	.	.	.	.	.	.	.	.	.	.	.	.	.	.	.	.
*	*	*	*	*rep	*	*	*	*	*	*	*	*	*	*	*	*	*	*	*	*	*	*	*	*	*
4r	.	.	.	16d/LL	.	8cc#\)	.	.	.	.	.	.	.	4r	.	.	.	4r	.	.	.	.	.	.	.
.	.	.	.	16e/	.	.	.	.	.	.	.	.	.	.	.	.	.	.	.	.	.	.	.	.	.
.	.	8c#/	.	16d/	.	8r	.	.	.	.	.	.	.	.	.	8cc#\	.	.	.	.	.	.	.	.	.
.	.	.	.	16e/JJ	.	.	.	.	.	.	.	.	.	.	.	.	.	.	.	.	.	.	.	.	.
=107	=107	=107	=107	=107	=107	=107	=107	=107	=107	=107	=107	=107	=107	=107	=107	=107	=107	=107	=107	=107	=107	=107	=107	=107	=107
8r	.	4G#/	.	(16B/LL	.	8g#/L	.	2ryy	2ryy	2r	.	2r	.	4e/	.	4b\	.	8r	.	2ryy	2ryy	2r	.	2r	.
.	.	.	.	16e/	.	.	.	.	.	.	.	.	.	.	.	.	.	.	.	.	.	.	.	.	.
8E\L	.	.	.	16B/)	.	8a/	.	.	.	.	.	.	.	.	.	.	.	8E/L	.	.	.	.	.	.	.
.	.	.	.	16e/JJ	.	.	.	.	.	.	.	.	.	.	.	.	.	.	.	.	.	.	.	.	.
!	!	!LO:TX:t=P:problem:mixed beam	!	!	!	!	!	!	!	!	!	!	!	!	!	!	!	!	!	!	!	!	!	!	!
8C#\	.	8A\L	.	16c#/LL	.	8b/	.	.	.	.	.	.	.	8c#/	.	8a\	.	8C#/	.	.	.	.	.	.	.
.	.	.	.	16e/	.	.	.	.	.	.	.	.	.	.	.	.	.	.	.	.	.	.	.	.	.
8AA\J	.	(16g#\L	.	16c#/	.	8cc#/J	.	.	.	.	.	.	.	8r	.	8r	.	8AA/J	.	.	.	.	.	.	.
.	.	16a\JJ)	.	16e/JJ	.	.	.	.	.	.	.	.	.	.	.	.	.	.	.	.	.	.	.	.	.
=108	=108	=108	=108	=108	=108	=108	=108	=108	=108	=108	=108	=108	=108	=108	=108	=108	=108	=108	=108	=108	=108	=108	=108	=108	=108
!LO:TX:t=P:problem:mixed beam	!	!	!	!	!	!	!	!	!	!	!	!	!	!	!	!	!	!LO:TX:t=P:problem:mixed beam	!	!	!	!	!	!	!
8BB\L	.	(16cc#\LL	.	16B/LL	.	(16ee\LL	.	2ryy	2ryy	2r	.	2r	.	8r	.	8r	.	8BB\L	.	2ryy	2ryy	2r	.	2r	.
.	.	16b\JJ)	.	16e/	.	16dd\JJ)	.	.	.	.	.	.	.	.	.	.	.	.	.	.	.	.	.	.	.
8B\	.	4b\	.	16B/	.	4dd\	.	.	.	.	.	.	.	4e/	.	4b\	.	8B\	.	.	.	.	.	.	.
.	.	.	.	16e/JJ	.	.	.	.	.	.	.	.	.	.	.	.	.	.	.	.	.	.	.	.	.
8G#\	.	.	.	16A/LL	.	.	.	.	.	.	.	.	.	.	.	.	.	8G#\	.	.	.	.	.	.	.
.	.	.	.	16e/	.	.	.	.	.	.	.	.	.	.	.	.	.	.	.	.	.	.	.	.	.
8B\J	.	8a\	.	16A/	.	8cc#\	.	.	.	.	.	.	.	8a\	.	8cc#\	.	8A\J	.	.	.	.	.	.	.
.	.	.	.	16e/JJ	.	.	.	.	.	.	.	.	.	.	.	.	.	.	.	.	.	.	.	.	.
=109	=109	=109	=109	=109	=109	=109	=109	=109	=109	=109	=109	=109	=109	=109	=109	=109	=109	=109	=109	=109	=109	=109	=109	=109	=109
4E\	.	4g#\	.	4e/	.	(16cc#\LL	.	2ryy	2ryy	2r	.	2r	.	4e/	.	4b\	.	4E\	.	2ryy	2ryy	2r	.	2r	.
.	.	.	.	.	.	16b\	.	.	.	.	.	.	.	.	.	.	.	.	.	.	.	.	.	.	.
.	.	.	.	.	.	16a#X\	.	.	.	.	.	.	.	.	.	.	.	.	.	.	.	.	.	.	.
.	.	.	.	.	.	16b\JJ)	.	.	.	.	.	.	.	.	.	.	.	.	.	.	.	.	.	.	.
!	!	!	!	!	!	!LO:TX:a:t=sic&colon;s=16an	!	!	!	!	!	!	!	!	!	!	!	!	!	!	!	!	!	!	!
4r	.	4r	.	4r	.	(16a#/LL	.	.	.	.	.	.	.	4r	.	4r	.	4r	.	.	.	.	.	.	.
.	.	.	.	.	.	16g#/	.	.	.	.	.	.	.	.	.	.	.	.	.	.	.	.	.	.	.
.	.	.	.	.	.	16f#/)	.	.	.	.	.	.	.	.	.	.	.	.	.	.	.	.	.	.	.
.	.	.	.	.	.	16e/JJ	.	.	.	.	.	.	.	.	.	.	.	.	.	.	.	.	.	.	.
=110	=110	=110	=110	=110	=110	=110	=110	=110	=110	=110	=110	=110	=110	=110	=110	=110	=110	=110	=110	=110	=110	=110	=110	=110	=110
!	!	!	!	!	!	!LO:TX:a:i:t=dolce	!	!	!	!	!	!	!	!LO:TX:a:t=3	!	!LO:TX:b:i:t=Dolce	!LO:DY:a	!	!	!	!	!	!	!LO:TX:b:i:t=Solo	!
4E\	.	4.B/	.	16d/LL	.	8b\	.	2ryy	2ryy	2r	.	2r	.	2r	.	4.b\	p	4E\	.	2ryy	2ryy	2r	.	4.bb\	.
.	.	.	.	16e/	.	.	.	.	.	.	.	.	.	.	.	.	.	.	.	.	.	.	.	.	.
.	.	.	.	(16d/	.	4b\	.	.	.	.	.	.	.	.	.	.	.	.	.	.	.	.	.	.	.
.	.	.	.	16e/JJ)	.	.	.	.	.	.	.	.	.	.	.	.	.	.	.	.	.	.	.	.	.
*	*	*	*	*rep	*	*	*	*	*	*	*	*	*	*	*	*	*	*	*	*	*	*	*	*	*
4r	.	.	.	16d/LL	.	.	.	.	.	.	.	.	.	.	.	.	.	4r	.	.	.	.	.	.	.
.	.	.	.	16e/	.	.	.	.	.	.	.	.	.	.	.	.	.	.	.	.	.	.	.	.	.
.	.	8c#/	.	(16d/	.	8cc#\	.	.	.	.	.	.	.	.	.	8cc#\	.	.	.	.	.	.	.	8ccc#\	.
.	.	.	.	16e/JJ)	.	.	.	.	.	.	.	.	.	.	.	.	.	.	.	.	.	.	.	.	.
=111	=111	=111	=111	=111	=111	=111	=111	=111	=111	=111	=111	=111	=111	=111	=111	=111	=111	=111	=111	=111	=111	=111	=111	=111	=111
8r	.	4G#/	.	(16B/LL	.	4g#/	.	2ryy	2ryy	2r	.	2r	.	2r	.	4e/	.	8r	.	2ryy	2ryy	2r	.	(4gg#\	p
.	.	.	.	16e/	.	.	.	.	.	.	.	.	.	.	.	.	.	.	.	.	.	.	.	.	.
8E\L	.	.	.	16B/)	.	.	.	.	.	.	.	.	.	.	.	.	.	8E/L	.	.	.	.	.	.	.
.	.	.	.	16e/JJ	.	.	.	.	.	.	.	.	.	.	.	.	.	.	.	.	.	.	.	.	.
!	!	!LO:TX:t=P:problem:mixed beam	!	!	!	!	!	!	!	!	!	!	!	!	!	!	!	!	!	!	!	!	!	!	!
8C#\	.	8A\L	.	16c#/LL	.	(8a/L	.	.	.	.	.	.	.	.	.	8a\L	.	8C#/	.	.	.	.	.	8aa\L	.
.	.	.	.	16e/	.	.	.	.	.	.	.	.	.	.	.	.	.	.	.	.	.	.	.	.	.
8AA\J	.	(16g#\L	.	16c#/	.	16b/L	.	.	.	.	.	.	.	.	.	16b\L	.	8AA/J	.	.	.	.	.	16bb\L	.
.	.	16a\JJ)	.	16e/JJ	.	16cc#/JJ)	.	.	.	.	.	.	.	.	.	16cc#\JJ	.	.	.	.	.	.	.	16ccc#\JJ)	.
=112	=112	=112	=112	=112	=112	=112	=112	=112	=112	=112	=112	=112	=112	=112	=112	=112	=112	=112	=112	=112	=112	=112	=112	=112	=112
!LO:TX:t=P:problem:mixed beam	!	!	!	!	!	!	!	!	!	!	!	!	!	!	!	!	!	!LO:TX:t=P:problem:mixed beam	!	!	!	!	!	!	!
8BB\L	.	(16cc#\LL	.	16B/LL	.	16ee\LL	.	2ryy	2ryy	2r	.	2r	.	2r	.	16ee\LL	.	8BB\L	.	2ryy	2ryy	2r	.	16eee\LL	.
.	.	16b\JJ)	.	16e/	.	16dd\JJ	.	.	.	.	.	.	.	.	.	16dd\JJ	.	.	.	.	.	.	.	16ddd\JJ	.
8B\	.	4b\	.	16B/	.	4dd\	.	.	.	.	.	.	.	.	.	4dd\	.	8B\	.	.	.	.	.	4ddd\	.
.	.	.	.	16e/JJ	.	.	.	.	.	.	.	.	.	.	.	.	.	.	.	.	.	.	.	.	.
8G#\	.	.	.	16A/LL	.	.	.	.	.	.	.	.	.	.	.	.	.	8G#\	.	.	.	.	.	.	.
.	.	.	.	16e/	.	.	.	.	.	.	.	.	.	.	.	.	.	.	.	.	.	.	.	.	.
8A\J	.	8a\	.	16A/	.	8cc#\	.	.	.	.	.	.	.	.	.	8cc#\	.	8A\J	.	.	.	.	.	8ccc#\	.
.	.	.	.	16e/JJ	.	.	.	.	.	.	.	.	.	.	.	.	.	.	.	.	.	.	.	.	.
=113	=113	=113	=113	=113	=113	=113	=113	=113	=113	=113	=113	=113	=113	=113	=113	=113	=113	=113	=113	=113	=113	=113	=113	=113	=113
!LO:TX:t=P:problem:mixed beam	!	!	!	!	!	!	!	!	!	!	!	!	!	!	!	!	!	!LO:TX:t=P:problem:mixed beam	!	!	!	!	!	!	!
8D/L	.	8f#\L	.	8d/L	.	8b'\L	.	2ryy	2ryy	2r	.	2r	.	4r	.	8b\	.	8D/L	.	2ryy	2ryy	8dd\L	f	8bb\L	.
!	!	!	!	!LO:TX:t=P:problem:klamra łukowa	!	!LO:TX:t=P:problem:brak numeru	!	!	!	!	!	!	!	!	!	!	!	!	!	!	!	!LO:TX:t=P:problem:klamra łukowa	!	!LO:TX:t=P:problem:klamra łukowa	!
8D/	.	8f#\	.	24f#/L	.	24dd\L	.	.	.	.	.	.	.	.	.	8r	.	8D/	.	.	.	24ff#\L	.	24ddd\L	.
.	.	.	.	24e/	.	24cc#\	.	.	.	.	.	.	.	.	.	.	.	.	.	.	.	24ee\	.	24ccc#\	.
.	.	.	.	24d/JJ	.	24b\JJ	.	.	.	.	.	.	.	.	.	.	.	.	.	.	.	24dd\JJ	.	24bb\JJ	.
8E/	.	8e\	.	8c#/L	.	8a/L	.	.	.	.	.	.	.	8a\L	.	8cc#\L	.	8E/	.	.	.	8cc#\L	.	8aa\L	.
8EE/J	.	8e\J	.	8B/J	.	8g#/J	.	.	.	.	.	.	.	8e\J	.	8b\J	.	8EE/J	.	.	.	8b\J	.	8gg#\J	.
=114	=114	=114	=114	=114	=114	=114	=114	=114	=114	=114	=114	=114	=114	=114	=114	=114	=114	=114	=114	=114	=114	=114	=114	=114	=114
!	!	!	!	!	!	!	!	!	!	!	!	!	!	!LO:TX:a:t=3	!	!LO:TX:a:t=3	!	!	!	!	!	!LO:TX:a:t=4.	!	!LO:TX:a:t=4	!
8r	p	(8.a\L	fp	8.ff#\L	f	8.aa\L	f	2ryy	2ryy	2r	.	2r	.	2r	.	2r	.	8r	.	2ryy	2ryy	2r	.	2r	.
8D\L	.	.	.	.	.	.	.	.	.	.	.	.	.	.	.	.	.	8D\L	p	.	.	.	.	.	.
.	.	32g#\LL	.	(32ee\LL	.	(32gg#\LL	.	.	.	.	.	.	.	.	.	.	.	.	.	.	.	.	.	.	.
.	.	32f#\JJJ)	.	32dd\JJJ)	p	32ff#\JJJ)	.	.	.	.	.	.	.	.	.	.	.	.	.	.	.	.	.	.	.
8D\	.	8f#'\L	.	8dd\	.	8ff#\	.	.	.	.	.	.	.	.	.	.	.	8D\	.	.	.	.	.	.	.
8D\J	.	8f#'\J	.	8r	.	8r	.	.	.	.	.	.	.	.	.	.	.	8D\J	.	.	.	.	.	.	.
=115	=115	=115	=115	=115	=115	=115	=115	=115	=115	=115	=115	=115	=115	=115	=115	=115	=115	=115	=115	=115	=115	=115	=115	=115	=115
8r	.	(8.f#\L	.	(8.dd\L	fp	(8.ff#\L	.	2ryy	2ryy	2r	.	2r	.	2r	.	2r	.	8r	.	2ryy	2ryy	2r	.	2r	.
8B\L	.	.	.	.	.	.	.	.	.	.	.	.	.	.	.	.	.	8B\L	.	.	.	.	.	.	.
.	.	32e\LL)	.	32cc#\LL	.	32ee\LL	.	.	.	.	.	.	.	.	.	.	.	.	.	.	.	.	.	.	.
.	.	32d\JJJ	.	32b\JJJ)	.	32dd\JJJ)	.	.	.	.	.	.	.	.	.	.	.	.	.	.	.	.	.	.	.
8B\	.	8d'\L	.	8b\	.	8dd\	.	.	.	.	.	.	.	.	.	.	.	8B\	.	.	.	.	.	.	.
8B\J	.	8d'\J	.	8r	.	8r	.	.	.	.	.	.	.	.	.	.	.	8B\J	.	.	.	.	.	.	.
=116	=116	=116	=116	=116	=116	=116	=116	=116	=116	=116	=116	=116	=116	=116	=116	=116	=116	=116	=116	=116	=116	=116	=116	=116	=116
!	!	!	!	!LO:N:vis=8	!	!	!	!	!	!	!	!	!	!	!	!	!	!	!	!	!	!	!	!	!
8r	.	(8.d\L	.	8.b\L	.	8.dd\L	.	2ryy	2ryy	2r	.	2r	.	2r	.	2r	.	8r	.	2ryy	2ryy	2r	.	2r	.
8B\L	.	.	.	.	.	.	.	.	.	.	.	.	.	.	.	.	.	8B\L	.	.	.	.	.	.	.
.	.	32c#\LL	.	(32a\LL	.	(32cc#\LL	.	.	.	.	.	.	.	.	.	.	.	.	.	.	.	.	.	.	.
.	.	32B\JJJ)	.	32g#\JJJ	.	32b\JJJ)	.	.	.	.	.	.	.	.	.	.	.	.	.	.	.	.	.	.	.
8G#\	.	8B\L	.	8g#\L)	.	(8b\L	.	.	.	.	.	.	.	.	.	.	.	8G#\	.	.	.	.	.	.	.
8E\J	.	8d\J	.	8b\J	.	8dd\J)	.	.	.	.	.	.	.	.	.	.	.	8E\J	.	.	.	.	.	.	.
=117	=117	=117	=117	=117	=117	=117	=117	=117	=117	=117	=117	=117	=117	=117	=117	=117	=117	=117	=117	=117	=117	=117	=117	=117	=117
!LO:TX:t=P:problem:mixed beam	!	!	!	!	!	!	!	!	!	!	!	!	!	!	!	!	!	!LO:TX:t=P:problem:mixed beam	!	!	!	!	!	!	!
8A/L	.	8e\L	.	16cc#'/LL	.	16ee\LL	.	2ryy	2ryy	2r	.	2r	.	8a\	p	8cc#\	p	8A/L	.	2ryy	2ryy	2r	.	2r	.
.	.	.	.	(16a/	.	(16cc#\	.	.	.	.	.	.	.	.	.	.	.	.	.	.	.	.	.	.	.
8D/	.	8f#\	.	16f#/)	.	16dd\)	.	.	.	.	.	.	.	8r	.	8r	.	8D/	.	.	.	.	.	.	.
.	.	.	.	16d/JJ	.	16b\JJ	.	.	.	.	.	.	.	.	.	.	.	.	.	.	.	.	.	.	.
8E/	.	8e\	.	8c#/L	.	8a/L	.	.	.	.	.	.	.	8a\L	.	8cc#\L	.	8E/	.	.	.	.	.	.	.
8EE/J	.	8e\J	.	8B/J	.	8g#/J	.	.	.	.	.	.	.	8e\J	.	8b\J	.	8EE/J	.	.	.	.	.	.	.
=118	=118	=118	=118	=118	=118	=118	=118	=118	=118	=118	=118	=118	=118	=118	=118	=118	=118	=118	=118	=118	=118	=118	=118	=118	=118
*	*	*	*	*	*	*^	*	*	*	*	*	*	*	*	*	*	*	*	*	*	*	*	*	*	*
!	!	!	!	!	!	!LO:N:vis=8	!	!	!	!	!	!	!	!	!LO:TX:a:t=3	!	!LO:TX:a:t=3	!	!	!	!	!	!	!	!	!
8r	.	8r	.	8.a/L	.	8.ccc#/L	8.cc#\L	fp	2ryy	2ryy	2r	.	2r	.	2r	.	2r	.	8r	.	2ryy	2ryy	(8.aa\L	p	(8.ccc#\L	p
8d\L	.	8f#\L	.	.	.	.	.	.	.	.	.	.	.	.	.	.	.	.	8d\L	.	.	.	.	.	.	.
.	.	.	.	(32g#/LL	.	32bb/LL	32b\LL	.	.	.	.	.	.	.	.	.	.	.	.	.	.	.	32gg#\LL	.	32bb\LL	.
.	.	.	.	32f#/JJJ)	.	32aa/JJJ	32a\JJJ	.	.	.	.	.	.	.	.	.	.	.	.	.	.	.	32ff#\JJJ)	.	32aa\JJJ)	.
!	!	!	!	!	!	!	!	!	!	!	!	!	!	!	!	!	!	!	!	!	!	!	!LO:TX:a:t=|:problem	!	!	!
8d\	.	8f#\	.	8f#/	.	8aa/	8a\	.	.	.	.	.	.	.	.	.	.	.	8d\	.	.	.	8ff#\	.	8aa\	.
8d\J	.	8f#\J	.	8r	.	8r	8r	.	.	.	.	.	.	.	.	.	.	.	8d\J	.	.	.	8r	.	8r	.
=119	=119	=119	=119	=119	=119	=119	=119	=119	=119	=119	=119	=119	=119	=119	=119	=119	=119	=119	=119	=119	=119	=119	=119	=119	=119	=119
!	!	!	!	!	!	!LO:N:vis=8	!	!	!	!	!	!	!	!	!	!	!	!	!	!	!	!	!	!	!	!
8r	.	8r	.	(8.f#/L	.	8.aa/L	8.a\L	.	2ryy	2ryy	2r	.	2r	.	2r	.	2r	.	8r	.	2ryy	2ryy	(8.ff#\L	.	(8.aa\L	.
8d\L	.	8b\L	.	.	.	.	.	.	.	.	.	.	.	.	.	.	.	.	8d\L	.	.	.	.	.	.	.
.	.	.	.	32e/LL)	.	32gg#/LL	32g#\LL	.	.	.	.	.	.	.	.	.	.	.	.	.	.	.	32ee\LL	.	32gg#\LL	.
.	.	.	.	32d/JJJ	.	32ff#/JJJ	32f#\JJJ	.	.	.	.	.	.	.	.	.	.	.	.	.	.	.	32dd\JJJ)	.	32ff#\JJJ)	.
8d\	.	8b\	.	8d/	.	8ff#/	8f#\	.	.	.	.	.	.	.	.	.	.	.	8d\J	.	.	.	8dd\	.	8ff#\	.
!	!	!	!	!	!	!	!	!	!	!	!	!	!	!	!	!	!	!	!LO:TX:t=P:problem:uszkodzony papier	!	!	!	!	!	!	!
8d\J	.	8b\J	.	8r	.	8r	8r	.	.	.	.	.	.	.	.	.	.	.	8ryy	.	.	.	8r	.	8r	.
*	*	*	*	*	*	*v	*v	*	*	*	*	*	*	*	*	*	*	*	*	*	*	*	*	*	*	*
=120	=120	=120	=120	=120	=120	=120	=120	=120	=120	=120	=120	=120	=120	=120	=120	=120	=120	=120	=120	=120	=120	=120	=120	=120	=120
!	!	!	!	!	!	!LO:N:vis=8	!	!	!	!	!	!	!	!	!	!	!	!	!	!	!	!	!	!	!
8r	.	8r	.	8.dd\L	.	8.ff#\L	f	2ryy	2ryy	2r	.	2r	.	2r	.	2r	.	8r	.	2ryy	2ryy	(8.dd\L	.	(8.ff#\L	.
8B\L	.	8e\L	.	.	.	.	.	.	.	.	.	.	.	.	.	.	.	8B\L	.	.	.	.	.	.	.
.	.	.	.	(32cc#\LL	.	(32ee\LL	.	.	.	.	.	.	.	.	.	.	.	.	.	.	.	32cc#\LL	.	32ee\LL	.
.	.	.	.	32b\JJJ)	.	32dd\JJJ)	.	.	.	.	.	.	.	.	.	.	.	.	.	.	.	32b\JJJ)	.	32dd\JJJ)	.
8G#\	.	8e\	.	8b\L	.	8dd'\L	.	.	.	.	.	.	.	.	.	.	.	8G#\	.	.	.	8b\	.	8dd\	.
8E\J	.	8g#\J	.	8b\J	.	8dd'\J	.	.	.	.	.	.	.	.	.	.	.	8E\J	.	.	.	8r	.	8r	.
=121	=121	=121	=121	=121	=121	=121	=121	=121	=121	=121	=121	=121	=121	=121	=121	=121	=121	=121	=121	=121	=121	=121	=121	=121	=121
!LO:TX:t=P:problem:mixed beam	!	!	!	!	!	!	!	!	!	!	!	!	!	!	!	!	!	!LO:TX:t=P:problem:mixed beam	!	!	!	!	!	!	!
8A\L	.	8e\L	.	8a/L	.	(16cc#\LL	.	2ryy	2ryy	2r	.	2r	.	4a\	.	4cc#\	.	8A\L	.	2ryy	2ryy	4r	.	4r	.
.	.	.	.	.	.	16ee\	.	.	.	.	.	.	.	.	.	.	.	.	.	.	.	.	.	.	.
8C#\	.	8e\	.	(16c#/L	.	16a\)	.	.	.	.	.	.	.	.	.	.	.	8C#\	.	.	.	.	.	.	.
.	.	.	.	16e/JJ)	.	16cc#\JJ	.	.	.	.	.	.	.	.	.	.	.	.	.	.	.	.	.	.	.
8D\	.	8f#\	.	(16d/LL	.	(16b\LL	.	.	.	.	.	.	.	8e/L	.	8b\L	.	8D\	.	.	.	(16dd\LL	f	(16bb\LL	f
.	.	.	.	16f#/)	.	16dd\	.	.	.	.	.	.	.	.	.	.	.	.	.	.	.	16ff#\)	.	16ddd\)	.
8E\J	.	8e\J	.	(16B/	.	16g#\	.	.	.	.	.	.	.	8e/J	.	8b\J	.	8E\J	.	.	.	(16b\	.	(16gg#\	.
.	.	.	.	16f#/JJ)	.	16b\JJ)	.	.	.	.	.	.	.	.	.	.	.	.	.	.	.	16dd\JJ)	.	16bb\JJ)	.
=122	=122	=122	=122	=122	=122	=122	=122	=122	=122	=122	=122	=122	=122	=122	=122	=122	=122	=122	=122	=122	=122	=122	=122	=122	=122
!LO:TX:t=P:problem:mixed beam	!	!	!	!	!	!	!	!	!	!	!	!	!	!	!	!	!	!LO:TX:t=P:problem:mixed beam	!	!	!	!	!	!	!
8AA\L	.	4e\	.	4d/	.	4b\	.	2ryy	2ryy	2r	.	2r	.	4e/	.	4b\	.	8AA\L	.	2ryy	2ryy	4dd\	.	4bb\	.
8A\	.	.	.	.	.	.	.	.	.	.	.	.	.	.	.	.	.	8A\	.	.	.	.	.	.	.
8AA\J	.	8e\	.	8c#/	.	8a/	.	.	.	.	.	.	.	8A/	.	8a\	.	8AA\J	.	.	.	8cc#\	.	8aa\	.
8r	.	8r	.	8r	.	8r	.	.	.	.	.	.	.	8r	.	8r	.	8r	.	.	.	8r	.	8r	.
==	==	==	==	==	==	==	==	==	==	==	==	==	==	==	==	==	==	==	==	==	==	==	==	==	==
*-	*-	*-	*-	*-	*-	*-	*-	*-	*-	*-	*-	*-	*-	*-	*-	*-	*-	*-	*-	*-	*-	*-	*-	*-	*-
!!!system-decoration: [(s1,s2,s3,s4,s5)][(s6,s7)][(s8,s9,s10,s11)][(s12,s13,s14)]s15
!!!ENC: Andrzej Borzym
!!!END: 2020-11-22
!!!YEC: Copyright 2022 Narodowy Instytut Fryderyka Chopina (https://polishscores.org)
!!!YEM: Licence CC BY 4.0 (https://creativecommons.org/licenses/by/4.0)
